!!!COM: L van Beethoven
!!!OTL: String Quartet No12 Op127
**kern	**dynam	**kern	**dynam	**kern	**dynam	**kern	**dynam	**mxhm
*part4	*part4	*part3	*part3	*part2	*part2	*part1	*part1	*part1
*staff4	*	*staff3	*	*staff2	*	*staff1	*	*
*I"Violoncello	*	*I"Viola	*	*I"Violin II	*	*I"Violin I	*	*
*I'Vc.	*	*I'Vla.	*	*I'Vln. II	*	*I'Vln. I	*	*
*clefF4	*	*clefC3	*	*clefG2	*	*clefG2	*	*
*k[]	*	*k[]	*	*k[]	*	*k[]	*	*
*C:	*	*C:	*	*C:	*	*C:	*	*
*M3/4	*	*M3/4	*	*M3/4	*	*M3/4	*	*
=1	=1	=1	=1	=1	=1	=1	=1	=1
!	!	!	!	!	!	!LO:TX:a:B:t=Scherzando vivace	!	!
!LO:TX:a:t=pizz.	!	!LO:TX:a:t=pizz.	!	!LO:TX:a:t=pizz.	!	!LO:TX:a:t=pizz.	!	!
8C	.	8G 8c	.	8e 8g	.	8E 8c 8cc	.	.Eb.I
8r	.	8r	.	8r	.	8r	.	.
8GG	.	8G 8B	.	8d 8g	.	8G 8d 8b	.	V
8r	.	8r	.	8r	.	8r	.	.
8C	.	8G 8c	.	8e 8g	.	8G 8e 8cc	.	I
8r	.	8r	.	8r	.	8r	.	.
=2	=2	=2	=2	=2	=2	=2	=2	=2
4GG	.	4G 4B	.	4B 4g	.	4B 4g 4dd	.	V
!LO:TX:a:t=arco	!	!	!	!	!	!	!	!
8.r	.	4r	.	4r	.	4r	.	.
16GG'KL	pp	.	.	.	.	.	.	.
8AA'	.	4r	.	4r	.	4r	.	.
16r	.	.	.	.	.	.	.	.
16C'Jk	.	.	.	.	.	.	.	.
=3!|:	=3!|:	=3!|:	=3!|:	=3!|:	=3!|:	=3!|:	=3!|:	=3!|:
4BB	.	2.r	.	2.r	.	2.r	.	@none
8.r	.	.	.	.	.	.	.	.
16BB'KL	.	.	.	.	.	.	.	.
8C'	.	.	.	.	.	.	.	.
16r	.	.	.	.	.	.	.	.
16E'Jk	.	.	.	.	.	.	.	.
=4	=4	=4	=4	=4	=4	=4	=4	=4
4D	.	2.r	.	2.r	.	2.r	.	.
8.r	.	.	.	.	.	.	.	.
16D'KL	.	.	.	.	.	.	.	.
8E'	.	.	.	.	.	.	.	.
16r	.	.	.	.	.	.	.	.
16G'Jk	.	.	.	.	.	.	.	.
=5	=5	=5	=5	=5	=5	=5	=5	=5
(2F#	.	2.r	.	2.r	.	2.r	.	.
4GT)	.	.	.	.	.	.	.	.
=6	=6	=6	=6	=6	=6	=6	=6	=6
(4A	.	4r	.	2.r	.	2.r	.	#viio/ii
4BB	.	8.r	.	.	.	.	.	.
!	!	!LO:TX:a:t=arco	!	!	!	!	!	!
.	.	16a'KL	pp	.	.	.	.	.
4C#t)	.	8g'	.	.	.	.	.	.
.	.	16r	.	.	.	.	.	.
.	.	16e'Jk	.	.	.	.	.	.
=7	=7	=7	=7	=7	=7	=7	=7	=7
(2D	.	4f	.	2.r	.	2.r	.	V64/ii
.	.	8.r	.	.	.	.	.	.
.	.	16f'KL	.	.	.	.	.	.
4Et)	.	8e	.	.	.	.	.	.
.	.	16r	.	.	.	.	.	.
.	.	16c#'Jk	.	.	.	.	.	.
=8	=8	=8	=8	=8	=8	=8	=8	=8
(2FX	.	4d	.	2.r	.	2.r	.	#viio/V
.	.	8.r	.	.	.	.	.	.
.	.	16d'KL	.	.	.	.	.	.
4F#t)	.	8cX	.	.	.	.	.	.
.	.	16r	.	.	.	.	.	.
.	.	16A'Jk	.	.	.	.	.	.
=9	=9	=9	=9	=9	=9	=9	=9	=9
(2G	.	(2B	.	2.r	.	2.r	.	@none
4c)	.	4AT)	.	.	.	.	.	.
=10	=10	=10	=10	=10	=10	=10	=10	=10
!	!	!	!	!LO:TX:a:t=arco	!	!	!	!
4B	.	4G	.	(2g	pp	2.r	.	V7
4r	.	4r	.	.	.	.	.	.
4r	.	4r	.	4fT)	.	.	.	.
=11	=11	=11	=11	=11	=11	=11	=11	=11
(2e	.	(2C	.	4e	.	2.r	.	@none
.	.	.	.	4r	.	.	.	.
4dT)	.	4BBt)	.	4r	.	.	.	.
=12	=12	=12	=12	=12	=12	=12	=12	=12
4c	.	4AA	.	(2cc	.	2.r	.	#viio6/V
4r	.	4r	.	.	.	.	.	.
4r	.	4r	.	4f#t)	.	.	.	.
=13	=13	=13	=13	=13	=13	=13	=13	=13
(2BB	.	(2D	.	4g	.	2.r	.	@none
.	.	.	.	4r	.	.	.	.
4AAT)	.	4CT)	.	4r	.	.	.	.
=14	=14	=14	=14	=14	=14	=14	=14	=14
!	!	!	!	!	!	!LO:TX:a:t=arco	!	!
4GG	.	4BB	.	(2b	.	(2gg	.	V
4r	.	4r	.	.	.	.	.	.
4r	.	4r	.	4ddT)	.	4ffT)	.	V7
.	.	.	.	32qqcc/LLL	.	.	.	.
.	.	.	.	32qqdd/JJJ	.	.	.	.
=15	=15	=15	=15	=15	=15	=15	=15	=15
(2CC	.	(2E	.	(2e	.	4ee	.	I
.	.	.	.	.	.	4r	.	.
4BBBt)	.	4DT)	.	4gT)	.	4r	.	V6
.	.	.	.	32qqf#/LLL	.	.	.	.
.	.	.	.	32qqg/JJJ	.	.	.	.
=16	=16	=16	=16	=16	=16	=16	=16	=16
8AAAL	.	4C	.	(4f#	.	[4ccc	.	#viio6/V
16r	.	.	.	.	.	.	.	.
!LO:TX:b:i:t=cresc.	!	!	!	!	!	!	!	!
16AAJk	.	.	.	.	.	.	.	.
!	!	!LO:TX:b:i:t=cresc.	!	!LO:TX:b:i:t=cresc.	!	!	!	!
4AA-X	.	4.FX	.	8.fXL)	.	4ccc]	.	iv6
.	.	.	.	16c'Jk	.	.	.	.
4GG	.	.	.	8d'L	.	4bbt	.	V7
.	.	8D	.	16r	.	.	.	.
.	.	.	.	16f'Jk	.	.	.	.
=17	=17	=17	=17	=17	=17	=17	=17	=17
!	!	!	!LO:DY:a	!	!	!	!	!
8CL	f	4C	f f	4E 4e	.	4ccc	.	I
16r	.	.	.	.	.	.	.	.
16CJk	p	.	.	.	.	.	.	.
4c	.	(4c	p	8.r	.	4r	.	.
.	.	.	.	16e'KL	p	.	.	.
4r	.	4dT)	.	8f'	.	4r	.	ii
.	.	.	.	16r	.	.	.	.
.	.	.	.	16a'Jk	.	.	.	.
=18	=18	=18	=18	=18	=18	=18	=18	=18
8.r	.	(2e	.	4g	.	2.r	.	IV
16C	.	.	.	.	.	.	.	.
4c	.	.	.	8.r	.	.	.	.
.	.	.	.	16g'KL	.	.	.	.
4r	.	4f)	.	8a'T	.	.	.	.
.	.	.	.	16r	.	.	.	.
.	.	.	.	16cc'Jk	.	.	.	.
=19	=19	=19	=19	=19	=19	=19	=19	=19
8dL	.	(2f	.	(2b	.	2.r	.	I
16r	.	.	.	.	.	.	.	.
16DJk	.	.	.	.	.	.	.	.
8dL	.	.	.	.	.	.	.	.
8GJ	.	.	.	.	.	.	.	.
8cL	.	4et)	.	4ccT)	.	.	.	.
16r	.	.	.	.	.	.	.	.
16GJk	.	.	.	.	.	.	.	.
=20	=20	=20	=20	=20	=20	=20	=20	=20
8B	.	4d	.	4dd	.	4r	.	V6
16r	.	.	.	.	.	.	.	.
16GG	.	.	.	.	.	.	.	.
4G	.	(4B	.	((4d	.	8.r	.	V
.	.	.	.	.	.	16ddd'KL	p	.
4r	.	4cT)	.	4et))	.	8ccc'	.	I
.	.	.	.	.	.	16r	.	.
.	.	.	.	.	.	16aa'Jk	.	.
=21	=21	=21	=21	=21	=21	=21	=21	=21
8G	.	(2d	.	(2f	.	4bb	.	V7
16r	.	.	.	.	.	.	.	.
16GG	.	.	.	.	.	.	.	.
4G	.	.	.	.	.	8.r	.	.
.	.	.	.	.	.	16bb'KL	.	.
4A	.	4cT)	.	4f#t)	.	8aa'	.	#viio6/V
.	.	.	.	.	.	16r	.	.
.	.	.	.	.	.	16ff#'Jk	.	.
=22	=22	=22	=22	=22	=22	=22	=22	=22
(2B-X	.	(4d	.	[2.g	.	4gg	.	v6
.	.	4c#	.	.	.	8.r	.	#io2
.	.	.	.	.	.	16gg'KL	.	.
4B)	.	8dTL	.	.	.	8ffX'	.	V65
.	.	8fJ)	.	.	.	16r	.	.
.	.	.	.	.	.	16dd'Jk	.	.
=23	=23	=23	=23	=23	=23	=23	=23	=23
4c	<	(4e	<	2.g_	< > ]]	(2ee	<	I
8CL	.	4cX	[	.	.	.	.	.
16r	[	.	.	.	.	.	.	.
16GJk	.	.	.	.	.	.	.	.
8FL	>	4B)	>]	.	.	4ddT)	[ > ]]	V43
16r	.	.	.	.	.	.	.	.
16DJk	]]	.	.	.	.	.	.	.
=24	=24	=24	=24	=24	=24	=24	=24	=24
(2E	.	(4c	.	4g]	]	4cc	.	I6
.	.	[2G)	.	(4g	.	8.r	.	.
.	.	.	.	.	.	16ggKL	.	.
4DT)	.	.	.	4b)	.	8ff	.	V43
.	.	.	.	.	.	16r	.	.
.	.	.	.	.	.	16ddJk	.	.
=25	=25	=25	=25	=25	=25	=25	=25	=25
4C	<	(4G]	<	(4cc	.	(2ee	.	I
8.r	.	4c	[	[2g)	.	.	.	.
16GKL	[	.	.	.	.	.	.	.
8F	>	4B)	>]	.	.	4ddT)	.	V43
16r	.	.	.	.	.	.	.	.
16DJk	]]	.	.	.	.	.	.	.
=26	=26	=26	=26	=26	=26	=26	=26	=26
!	!	!	!	!LO:TX:b:i:t=cresc.	!	!LO:TX:b:i:t=cresc.	!	!
4E	p	(4c	p	(2g]	p	(2cc	p	I6
!LO:TX:b:i:t=cresc.	!	!LO:TX:b:i:t=cresc.	!	!	!	!	!	!
8.r	.	4e	.	.	.	.	.	.
16EE	.	.	.	.	.	.	.	.
8EL	.	4d)	.	4g#)	f	4bt)	.	V7/vi
16r	.	.	.	.	.	.	.	.
16EJk	.	.	.	.	.	.	.	.
=27	=27	=27	=27	=27	=27	=27	=27	=27
4F'	f	4d'	f	4A'	.	4a'	f	ii6
4F'	.	4A'	.	4a'	.	4dd'	.	.
4E'	.	4E' 4B	.	4g#'	.	4ee'	.	V/vi
=28	=28	=28	=28	=28	=28	=28	=28	=28
4r	.	4r	.	4r	.	4r	.	.
4A	p	4e	p	4a	p	4cc	p	vi
4r	.	4r	.	4r	.	4r	.	.
=29	=29	=29	=29	=29	=29	=29	=29	=29
4r	.	4r	.	4r	.	4r	.	.
4D	.	4f#	f	4a	.	4dd	.	V/V
4r	.	4r	.	4r	.	4r	.	.
=30	=30	=30	=30	=30	=30	=30	=30	=30
8G'L	f	8B'L	.	4d'	f	4b'	f	V
8F'	.	8A'	.	.	.	.	.	.
8E'	.	8G#'	.	4b'	.	4dd'	.	V7/vi
8G#'	.	8B'	.	.	.	.	.	.
8F#'	.	8A'	.	4b	.	4ee'	.	V/vi
8E'J	.	8G#'J	.	.	.	.	.	.
=31	=31	=31	=31	=31	=31	=31	=31	=31
8AL	p	8cL	p	8cc'L	p	8.r	.	vi
8c	.	8aJ	.	8e'J	.	.	.	.
.	.	.	.	.	.	(16cc	p	.
8A	.	8ccL	.	8c'L	.	4ccc')	.	V.ii
8cJ	.	8a	.	8e'	.	.	.	.
8BL	.	8b	.	8d'	.	4r	.	.
8AJ	.	8ccJ	.	8c'J	.	.	.	.
=32	=32	=32	=32	=32	=32	=32	=32	=32
8F#L	.	8cL	.	8aL 8dL	.	8.r	.	V65
8A	.	8A	.	8ccJ 8dJ	.	.	.	.
.	.	.	.	.	.	(16dd	.	.
8F#	.	8c	.	8aL 8dL	.	4ddd')	.	.
8AJ	.	8AJ	.	8ccJ 8dJ	.	.	.	.
8GXL	.	8BL	.	8bL 8dL	.	8r	.	I
8F#J	.	8cJ	.	8aJ 8dJ	.	8r	.	V65
=33	=33	=33	=33	=33	=33	=33	=33	=33
!LO:TX:b:i:t=cresc.	!	!LO:TX:b:i:t=cresc.	!	!LO:TX:b:i:t=cresc.	!	!LO:TX:b:i:t=cresc.	!	!
8cL	.	8dL	.	8aL	.	8ee-XL	.	V2
8BJ	.	8dJ	.	8gXJ	.	16r	.	I6
.	.	.	.	.	.	(16ddJk	.	.
8AL	.	8cL	.	8f#L	.	8eeL)	.	vii%65
8G	.	8B	.	8e	.	16r	.	vi65
.	.	.	.	.	.	(16ddJk	.	.
8F#J	.	8A	.	8d	.	8ff#L)	.	V6
8E	.	8GXJ	.	8cJ	.	16r	.	IV6
.	.	.	.	.	.	(16ddJk	.	.
=34	=34	=34	=34	=34	=34	=34	=34	=34
8DL	.	8F#L	.	8BL	.	8ggL)	.	iii6(+6)
8C	.	8E	.	8A	.	16r	.	ii6
.	.	.	.	.	.	(16ddJk	.	.
8BBJ	.	8D	.	8G	.	8aaL)	.	I6(+2)
8AA	.	8CJ	.	8F#	.	16r	.	viio6
.	.	.	.	.	.	(16ddJk	.	.
8GGL	.	8BBL	.	8E	.	8bbL)	.	I
8FF#J	.	8AAJ	.	8dJ	.	16r	.	V6
.	.	.	.	.	.	(16ddJk	.	.
=35	=35	=35	=35	=35	=35	=35	=35	=35
8EEL	f	8GL	f	8cL	f	8cccL)	f	IV6
8DDJ	.	8F#	.	8c	.	16r	.	V7
.	.	.	.	.	.	(16ddJk	.	.
8dL	.	8F#	.	8c	.	8cccL)	.	.
8DJ	.	8AJ	.	8cJ	.	16r	.	.
.	.	.	.	.	.	16ddd'Jk	.	.
8DL	.	8AL	.	8ccL	.	8eee'L	.	.
8DDJ	.	8AJ	.	8ccJ	.	16r	.	.
.	.	.	.	.	.	16fff#Jk	.	.
=36	=36	=36	=36	=36	=36	=36	=36	=36
4GG	.	4G	.	4b	.	4ggg	.	I\\
8G	.	4g	.	8G	.	8G	.	.
16r	.	.	.	8r	.	8r	.	.
16GGKL	pp	.	.	.	.	.	.	.
8AA	.	4r	.	4r	.	4r	.	.
16r	.	.	.	.	.	.	.	.
16CJk	.	.	.	.	.	.	.	.
=37:|!	=37:|!	=37:|!	=37:|!	=37:|!	=37:|!	=37:|!	=37:|!	=37:|!
4GG	.	4G	.	4b	.	4ggg	.	I\\
8G	.	8g	.	8G	.	8G	.	.
16r	.	16r	.	16r	.	16r	.	.
16GG#KL	ff	16G#KL	ff	16G#KL	ff	16G#KL	ff	.
8AA	.	8A	.	8A	.	8A	.	.
16r	.	16r	.	16r	.	16r	.	.
16CJk	.	16cJk	.	16cJk	.	16cJk	.	.
=38!|:	=38!|:	=38!|:	=38!|:	=38!|:	=38!|:	=38!|:	=38!|:	=38!|:
8AAAL	.	8AAL	.	8AL	.	8AL	.	@none
16r	.	16r	.	16r	.	16r	.	.
16BBBJk	.	16BBJk	.	16BJk	.	16BJk	.	.
8DDL	.	8DL	.	8dL	.	8dL	.	.
16r	.	16r	.	16r	.	16r	.	.
16CCJk	.	16CJk	.	16cJk	.	16cJk	.	.
8DDL	.	8DL	.	8dL	.	8dL	.	.
16r	.	16r	.	16r	.	16r	.	.
16FFXJk	.	16FXJk	.	16fXJk	.	16fXJk	.	.
=39	=39	=39	=39	=39	=39	=39	=39	=39
8EEL	.	8EL	.	8eL	.	8eL	.	.
16r	.	16r	.	16r	.	16r	.	.
16FF#Jk	.	16F#Jk	.	16f#Jk	.	16f#Jk	.	.
8AAL	.	8AL	.	8aL	.	8aL	.	.
16r	.	16r	.	16r	.	16r	.	.
16GG#Jk	.	16G#Jk	.	16g#Jk	.	16g#Jk	.	.
8AAL	.	8AL	.	8aL	.	8aL	.	.
16r	.	16r	.	16r	.	16r	.	.
16CJk	.	16cJk	.	16ccJk	.	16ccJk	.	.
=40	=40	=40	=40	=40	=40	=40	=40	=40
8BBL	.	8BL	.	8bL	.	8bL	.	.
16r	.	16r	.	16r	.	16r	.	.
16CJk	.	16cJk	.	16ccJk	.	16ccJk	.	.
8DL	.	8dL	.	8ddL	.	8ddL	.	.
16r	.	16r	.	16r	.	16r	.	.
16C#Jk	.	16c#Jk	.	16cc#Jk	.	16cc#Jk	.	.
8DL	.	8dL	.	8ddL	.	8ddL	.	.
16r	.	16r	.	16r	.	16r	.	.
16D#XJk	.	16d#XJk	.	16d#XJk	.	16dd#XJk	.	.
=41	=41	=41	=41	=41	=41	=41	=41	=41
8EEL	.	8EL	.	8eL	.	8eeL	.	vi.V
16r	.	16r	.	16r	.	16r	.	.
16EEJk	.	16EJk	.	16eJk	p	16eeJk	.	.
8E	.	8e	.	8ee	.	8eee	.	.
8GG#'L	p	8r	.	8r	.	16r	.	V65
.	.	.	.	.	.	16eeKL	p	.
8BB'	.	4r	.	4r	.	8dd	.	.
8E'J	.	.	.	.	.	16r	.	.
.	.	.	.	.	.	16bJk	.	.
=42	=42	=42	=42	=42	=42	=42	=42	=42
(8AAL	.	2.r	.	8.r	.	4ccX	.	i
8E	.	.	.	.	.	.	.	.
.	.	.	.	16c	.	.	.	.
8A)	.	.	.	4cc	.	8.r	.	.
8E'	.	.	.	.	.	.	.	.
.	.	.	.	.	.	16ccKL	.	.
8G#'	.	.	.	4r	.	8b	.	V
8E'J	.	.	.	.	.	16r	.	.
.	.	.	.	.	.	16g#Jk	.	.
=43	=43	=43	=43	=43	=43	=43	=43	=43
(8AAL	.	8.r	.	2.r	.	4a	.	i
8E	.	.	.	.	.	.	.	.
.	.	16E	p	.	.	.	.	.
8c)	.	4AA	.	.	.	8.r	.	.
8E'	.	.	.	.	.	.	.	.
.	.	.	.	.	.	16ffKL	.	.
8AA'	.	4r	.	.	.	8ee	.	.
8E'J	.	.	.	.	.	16r	.	.
.	.	.	.	.	.	16ccJk	.	.
=44	=44	=44	=44	=44	=44	=44	=44	=44
(8GG#L	.	2.r	.	8.r	.	4dd	.	V65
8E	.	.	.	.	.	.	.	.
.	.	.	.	16e	.	.	.	.
8B)	.	.	.	4dd	.	8.r	.	.
8E'J	.	.	.	.	.	.	.	.
.	.	.	.	.	.	16ddKL	.	.
8AA'L	.	.	.	4r	.	8cc	.	i
8E'J	.	.	.	.	.	16r	.	.
.	.	.	.	.	.	16aJk	.	.
=45	=45	=45	=45	=45	=45	=45	=45	=45
(8GG#L	.	8.r	.	2.r	.	4b	.	V65
8E	.	.	.	.	.	.	.	.
.	.	16B	.	.	.	.	.	.
8B)	.	4E	.	.	.	8.r	.	.
8E'J	.	.	.	.	.	.	.	.
.	.	.	.	.	.	16eeKL	.	.
8GG#'L	.	4r	.	.	.	8dd	.	.
8E'J	.	.	.	.	.	16r	.	.
.	.	.	.	.	.	16bJk	.	.
=46	=46	=46	=46	=46	=46	=46	=46	=46
(8AAL	.	2.r	.	8.r	.	4cc	.	i
8E	.	.	.	.	.	.	.	.
.	.	.	.	16e	.	.	.	.
8A)	.	.	.	4cc	.	8.r	.	.
8E'J	.	.	.	.	.	.	.	.
.	.	.	.	.	.	16ccKL	.	.
8D'L	.	.	.	4r	.	8b	.	V2
8E'J	.	.	.	.	.	16r	.	.
.	.	.	.	.	.	16g#Jk	.	.
=47	=47	=47	=47	=47	=47	=47	=47	=47
8C'L	.	8.r	.	4r	.	4a	.	i6
8E'	.	.	.	.	.	.	.	.
.	.	16A	.	.	.	.	.	.
8C#'	.	8e	.	8.r	.	4r	.	V6/iv
8E'J	.	16r	.	.	.	.	.	.
!	!	!LO:TX:b:i:t=cresc.	!	!LO:TX:b:i:t=cresc.	!	!	!	!
.	.	16AA	.	16eKL	.	.	.	.
!LO:TX:b:i:t=cresc.	!	!	!	!	!	!	!	!
8AA'L	.	8EL	.	8gX	.	4r	.	V7/iv
8C#'J	.	8EJ	.	16r	.	.	.	.
.	.	.	.	16aJk	.	.	.	.
=48	=48	=48	=48	=48	=48	=48	=48	=48
!	!LO:DY:a	!	!	!	!	!	!	!
4DD	p p	(8DL	.	4f	p	8.r	.	iv
.	.	8A	.	.	.	.	.	.
.	.	.	.	.	.	16a	p	.
4r	.	8f)	.	8.r	.	4aa	.	.
.	.	8A'J	.	.	.	.	.	.
.	.	.	.	16fKL	.	.	.	.
4r	.	8D'L	.	8g	.	4r	.	iv(64)
.	.	8A'J	.	16r	.	.	.	.
.	.	.	.	16b-XJk	.	.	.	.
=49	=49	=49	=49	=49	=49	=49	=49	=49
8.r	.	(8DL	.	4a	.	4.r	.	iv
.	.	8A	.	.	.	.	.	.
16D	.	.	.	.	.	.	.	.
4A	.	8f)	.	8.r	.	.	.	.
.	.	8A'J	.	.	.	8r	.	V/iv
.	.	.	.	16c#KL	.	.	.	.
4r	.	8D'L	.	8d	.	4r	.	iv
.	.	8A'J	.	16r	.	.	.	.
.	.	.	.	16fJk	.	.	.	.
=50	=50	=50	=50	=50	=50	=50	=50	=50
2.r	.	(8C#L	.	4e	.	8.r	.	V6/iv
.	.	8A	.	.	.	.	.	.
.	.	.	.	.	.	16a	.	.
.	.	8e)	.	8.r	.	4aa	.	.
.	.	8A'J	.	.	.	.	.	.
.	.	.	.	16eKL	.	.	.	.
.	.	8D'L	.	8f	.	4r	.	iv
.	.	8A'J	.	16r	.	.	.	.
.	.	.	.	16aJk	.	.	.	.
=51	=51	=51	=51	=51	=51	=51	=51	=51
8.r	.	8C#'L	.	8gL	.	8.r	.	V65/iv
.	.	8A'	.	16r	.	.	.	.
16AA	.	.	.	16aJk	.	16a	.	.
8DL	.	8D'J	.	8fL	.	8ff'L	.	iv
16r	.	16r	.	16r	.	8f'J	.	.
16FJk	.	16d	.	16fJk	.	.	.	.
!LO:TX:b:i:t=cresc.	!	!LO:TX:b:i:t=cresc.	!	!LO:TX:b:i:t=cresc.	!	!LO:TX:b:i:t=cresc.	!	!
8E-XL	.	8cXL	.	8gL	.	8A'L	.	.bVII.viio43
16r	.	16r	.	16r	.	8f'J	.	V64
16CJk	.	16AJk	.	16aJk	.	.	.	.
=52	=52	=52	=52	=52	=52	=52	=52	=52
4D	p	4F	p	4b-X	p	(8B-XL	p	I6
.	.	.	.	.	.	8f	.	.
8.r	.	8.r	.	8.r	.	8dd)	.	.
.	.	.	.	.	.	8f'J	.	.
16DKL	.	16FKL	.	16b-KL	.	.	.	.
8C	.	8E-X	.	8ccX	.	8A'L	.	V65
16r	.	16r	.	16r	.	8f'J	.	.
16AAJk	.	16CJk	.	16ee-XJk	.	.	.	.
=53	=53	=53	=53	=53	=53	=53	=53	=53
4BB-X	.	4D	.	4dd	.	(8B-XL	.	I
.	.	.	.	.	.	8f	.	.
8.r	.	8.r	.	8.r	.	8dd)	.	.
.	.	.	.	.	.	8f'J	.	.
16GKL	.	16e-XKL	.	16aKL	.	.	.	.
8F	.	8d	.	8b-X	.	8B-'L	.	I64
16r	.	16r	.	16r	.	8f'J	.	I6
16DJk	.	16B-XJk	.	16ddJk	.	.	.	.
=54	=54	=54	=54	=54	=54	=54	=54	=54
4E-X	.	4F 4f	.	4cc	.	(8AL	.	V2
.	.	.	.	.	.	8f	.	.
8.r	.	8.r	.	8.r	.	8cc)	.	.
.	.	.	.	.	.	8f'J	.	.
16E-KL	.	16AKL	.	16ccKL	.	.	.	.
8D	.	8B-X	.	8dd	.	8B-X'L	.	I
16r	.	16r	.	16r	.	8f'J	.	I6
16BB-XJk	.	16FJk	.	16ffJk	.	.	.	.
=55	=55	=55	=55	=55	=55	=55	=55	=55
4C	.	4F	.	4ee-X	.	(8AL	.	V43
.	.	.	.	.	.	8f	.	.
8.r	.	8.r	.	4r	.	8ee-XJ)	.	.
.	.	.	.	.	.	16r	.	.
!LO:TX:b:i:t=cresc.	!	!LO:TX:b:i:t=cresc.	!	!	!	!LO:TX:b:i:t=cresc.	!	!
16FFKL	.	16AAKL	.	.	.	16ffKL	.	.
8GG	.	8BB-X	.	4r	.	8ee-	.	IV6
16r	.	16r	.	.	.	16r	.	.
16AAJk	.	16FJk	.	.	.	16ccJk	.	V6
=56	=56	=56	=56	=56	=56	=56	=56	=56
4BB-X	.	4F	.	8.r	.	4dd	.	I
!	!	!	!	!LO:TX:b:i:t=cresc.	!	!	!	!
.	.	.	.	16F	.	.	.	.
8.r	.	8.r	.	4f	.	8.r	.	.
16BB-KL	.	16DKL	.	.	.	16ddKL	.	.
8C	.	8E-X	.	4r	.	8cc	.	V43
16r	.	16r	.	.	.	16r	.	.
16E-XJk	.	16FJk	.	.	.	16aJk	.	V2
=57	=57	=57	=57	=57	=57	=57	=57	=57
4D	.	4F	.	8.r	.	4b	.	i.#viio6
.	.	.	.	16G	.	.	.	.
8.r	.	8.r	.	4g	.	8.r	.	.
16AAKL	.	16CKL	.	.	.	16ggKL	.	.
8BB	.	8D	.	4r	.	8ff	.	V65
16r	.	16r	.	.	.	16r	.	.
16DJk	.	16FJk	.	.	.	16ddJk	.	.
=58	=58	=58	=58	=58	=58	=58	=58	=58
4C	.	4E-X	.	8.r	.	4ee-X	.	i
.	.	.	.	16G	.	.	.	.
8.r	.	8.r	.	4g	.	8.r	.	.
16CKL	.	16E-KL	.	.	.	16ee-KL	.	.
8D	.	8F	.	4r	.	8dd	.	ii
16r	.	16r	.	.	.	16r	.	.
16FJk	.	16GJk	.	.	.	16bJk	.	V2
=59	=59	=59	=59	=59	=59	=59	=59	=59
!	!	!	!	!	!LO:DY:a	!	!	!
8E-XL	sf	8GL	sf	4r	sf	8ccL	.	i6
16r	.	16r	.	.	.	16r	.	.
16BBJk	.	16DJk	.	.	.	16aa-XJk	.	#viio7
8CL	.	8E-XL	.	8.r	.	8ggL	.	i
16r	.	16r	.	.	.	16r	.	.
16E-Jk	.	16GJk	.	16g	sf	16ee-XJk	.	i6
8DL	.	8FL	.	8a-XL	.	8ffL	.	iio
16r	.	16r	.	16r	.	16r	.	.
16DJk	.	16FJk	.	16a-Jk	.	16ffJk	.	.
=60	=60	=60	=60	=60	=60	=60	=60	=60
8E-XL	.	8GL	.	8gL	.	8ee-XL	.	i6
16r	.	16r	.	16r	.	16r	.	.
16GJk	.	16B-XJk	.	16e-XJk	.	16ccJk	.	.
8FL	.	8A-XL	.	8fL	.	8ddL	.	.bIII.viio6
16r	.	16r	.	16r	.	16r	.	.
16CJk	.	16E-XJk	.	16b-XJk	.	16bb-XJk	.	vi7
8DL	.	8FL	.	8b-L	.	8aa-XL	.	V65
16r	.	16r	.	16r	.	16r	.	.
16DJk	.	16B-Jk	.	16a-XJk	.	16ffJk	.	.
=61	=61	=61	=61	=61	=61	=61	=61	=61
8E-XL	ff	8B-XL	ff	8gL	ff	8ggL	ff	I
16r	.	16r	.	16r	.	16r	.	.
16GJk	.	16e-XJk	.	16b-XJk	.	16ee-XJk	.	.
8E-L	.	8B-L	.	8gL	.	8ggL	.	.
16r	.	16r	.	16r	.	16r	.	.
16GJk	.	16e-Jk	.	16b-Jk	.	16ee-Jk	.	.
8E-L	.	8B-L	.	8gL	.	8ggL	.	.
16r	.	16r	.	16r	.	16r	.	.
16GJk	.	16e-Jk	.	16b-Jk	.	16ee-Jk	.	.
=62	=62	=62	=62	=62	=62	=62	=62	=62
8CL	.	8A-XL	.	8e-XL	.	8aa-XL	.	IV6
16r	.	16r	.	16r	.	16r	.	.
16E-XJk	.	16cJk	.	16a-XJk	.	16ee-XJk	.	.
8CL	.	8A-L	.	8e-L	.	8aa-L	.	.
16r	.	16r	.	16r	.	16r	.	.
16E-Jk	.	16cJk	.	16a-Jk	.	16ee-Jk	.	.
8CL	.	8A-L	.	8e-L	.	8aa-L	.	.
16r	.	16r	.	16r	.	16r	.	.
16E-Jk	.	16cJk	.	16a-Jk	.	16ee-Jk	.	.
=63	=63	=63	=63	=63	=63	=63	=63	=63
8BB-XL	.	8GL	.	8e-XL	.	8ggL	.	V(64)
16r	.	16r	.	16r	.	16r	.	.
16E-XJk	.	16B-XJk	.	16gJk	.	16ee-XJk	.	.
8BB-L	.	8GL	.	8e-L	.	8ggL	.	.
16r	.	16r	.	16r	.	16r	.	.
16E-Jk	.	16B-Jk	.	16gJk	.	16ee-Jk	.	.
8BB-L	.	8GL	.	8e-L	.	8ggL	.	.
16r	.	16r	.	16r	.	16r	.	.
16E-Jk	.	16B-Jk	.	16gJk	.	16ee-Jk	.	.
=64	=64	=64	=64	=64	=64	=64	=64	=64
8BB-XL	.	8FL	.	8dL	.	8ffL	.	V
16r	.	16r	.	16r	.	16r	.	.
16FJk	.	16dJk	.	16b-XJk	.	16ddJk	.	.
8BB-L	.	8FL	.	8dL	.	8ffL	.	.
16r	.	16r	.	16r	.	16r	.	.
16FJk	.	16dJk	.	16b-Jk	.	16ddJk	.	.
8BB-L	.	8FL	.	8dL	.	8ffL	.	.
16r	.	16r	.	16r	.	16r	.	.
16FJk	.	16dJk	.	16b-Jk	.	16ddJk	.	.
=65	=65	=65	=65	=65	=65	=65	=65	=65
8D#XL	pp	8F#L	pp	8f#L	pp	8ff#L	pp	i\\
16r	.	16r	.	16r	.	16r	.	.
16F#Jk	.	16d#XJk	.	16a#XJk	.	16dd#XJk	.	.
8D#L	.	8F#L	.	8f#L	.	8ff#L	.	i
16r	.	16r	.	16r	.	16r	.	.
16F#Jk	.	16d#Jk	.	16a#Jk	.	16dd#Jk	.	.
8D#L	.	8F#L	.	8f#L	.	8ff#L	.	.
16r	.	16r	.	16r	.	16r	.	.
16F#Jk	.	16d#Jk	.	16a#Jk	.	16dd#Jk	.	.
=66	=66	=66	=66	=66	=66	=66	=66	=66
8D#XL	.	8F#L	.	8f#L	.	8ff#L	.	iii.V6
16r	.	16r	.	16r	.	16r	.	.
16F#Jk	.	16d#XJk	.	16bJk	.	16dd#XJk	.	.
8D#L	.	8F#L	.	8f#L	.	8ff#L	.	.
16r	.	16r	.	16r	.	16r	.	.
16F#Jk	.	16d#Jk	.	16bJk	.	16dd#Jk	.	.
8D#L	.	8F#L	.	8f#L	.	8ff#L	.	.
16r	.	16r	.	16r	.	16r	.	.
16F#Jk	.	16d#Jk	.	16bJk	.	16dd#Jk	.	.
=67	=67	=67	=67	=67	=67	=67	=67	=67
8BBL	f	8BBL 8B	f	8BL 8b	f	8bb	f	V
16r	.	16r	.	16r	.	16r	.	.
16BBBJk	.	16BBJk	.	16BJk	.	16B	.	.
8CC#L	.	8C#L	.	8c#L	.	8c#L	.	@none
16r	.	16r	.	16r	.	16r	.	.
16EEJk	.	16EJk	.	16eJk	.	16eJk	.	.
8DD#XL	.	8D#XL	.	8d#XL	.	8d#XL	.	.
16r	.	16r	.	16r	.	16r	.	.
16EEJk	.	16EJk	.	16eJk	.	16eJk	.	.
=68	=68	=68	=68	=68	=68	=68	=68	=68
8GGL	.	8GL	.	8gL	.	8gL	.	.
16r	.	16r	.	16r	.	16r	.	.
16FF#Jk	.	16F#Jk	.	16f#Jk	.	16f#Jk	.	.
8GGL	.	8GL	.	8gL	.	8gL	.	.
16r	.	16r	.	16r	.	16r	.	.
16BBJk	.	16BJk	.	16bJk	.	16bJk	.	.
8AAL	.	8AL	.	8aL	.	8aL	.	.
16r	.	16r	.	16r	.	16r	.	.
16BBJk	.	16BJk	.	16bJk	.	16bJk	.	.
=69	=69	=69	=69	=69	=69	=69	=69	=69
8CXL	.	8cXL	.	8ccXL	.	8ccXL	.	.
16r	.	16r	.	16r	.	16r	.	.
16BBJk	.	16BJk	.	16bJk	.	16bJk	.	.
8C#L	.	8c#L	.	8cc#L	.	8cc#L	.	.
16r	.	16r	.	16r	.	16r	.	.
16EJk	.	16eJk	.	16eeJk	.	16eeJk	.	.
8D#XL	.	8d#XL	.	8dd#XL	.	8dd#XL	.	.
16r	.	16r	.	16r	.	16r	.	.
16EJk	.	16eJk	.	16eeJk	.	16eeJk	.	.
=70	=70	=70	=70	=70	=70	=70	=70	=70
8GL	.	8gL	.	8gL	.	8ggL	.	.
16r	.	16r	.	16r	.	16r	.	.
16F#Jk	.	16f#Jk	.	16f#Jk	.	16ff#Jk	.	.
8AL	.	8aL	.	8aL	.	8aaL	.	.
16r	.	16r	.	16r	.	16r	.	.
16BJk	.	16bJk	.	16bJk	.	16bbJk	.	.
4cX	.	4ccX	.	4ccX	.	4cccX	.	.
=71||	=71||	=71||	=71||	=71||	=71||	=71||	=71||	=71||
*M2/4	*	*M2/4	*	*M2/4	*	*M2/4	*	*
!	!	!	!	!	!	!LO:TX:a:B:t=Allegro	!	!
*MM120	*	*MM120	*	*MM120	*	*MM120	*	*
!	!	!	!	!	!	!LO:TX:a:t=[quarter]=120	!	!
4r	.	4r	.	2r	.	2r	.	.
!	!LO:DY:a	!	!	!	!	!	!	!
(4AAA	p p	(4AA	.	.	.	.	.	.
=72	=72	=72	=72	=72	=72	=72	=72	=72
4BBB	.	4BB	.	2r	.	2r	.	V6
4DD#X)	.	4D#X)	.	.	.	.	.	.
=73	=73	=73	=73	=73	=73	=73	=73	=73
(4EE	.	(4E	.	2r	.	2r	.	i6
4GG)	.	4G)	.	.	.	.	.	.
=74	=74	=74	=74	=74	=74	=74	=74	=74
(8FF#L	.	(8F#L	.	2r	.	2r	.	i
16GGL	.	16GL	.	.	.	.	.	.
16FF#JJ)	.	16F#JJ)	.	.	.	.	.	.
8EE'L	.	8E'L	.	.	.	.	.	.
8GG'J	.	8G'J	.	.	.	.	.	.
=75	=75	=75	=75	=75	=75	=75	=75	=75
8C'L	.	8c'L	.	2r	.	8r	.	IV
8BB'J	.	8B'J	.	.	.	8r	.	V
8D#X'L	.	8d#X'L	.	.	.	8r	.	.
8E'J	.	8e'J	.	.	.	8r	.	i
=76||	=76||	=76||	=76||	=76||	=76||	=76||	=76||	=76||
*M3/4	*	*M3/4	*	*M3/4	*	*M3/4	*	*
!	!	!	!	!	!	!LO:TX:a:B:t=Tempo I	!	!
[2.A	pp	[2.c	pp	[2.d#X [2.f#	pp	4r	.	#viio43
.	.	.	.	.	.	8.r	.	.
.	.	.	.	.	.	16cccKL	pp	.
.	.	.	.	.	.	8bb	.	.
.	.	.	.	.	.	16r	.	.
.	.	.	.	.	.	16gg#Jk	.	.
=77	=77	=77	=77	=77	=77	=77	=77	=77
4A]	.	4c]	.	4d#] 4f#]	.	4aa	.	.
4r	.	4r	.	8.r	.	4r	.	.
.	.	.	.	16G#KL	.	.	.	.
4r	.	4r	.	8B	.	4r	.	.
.	.	.	.	16r	.	.	.	.
.	.	.	.	16cJk	.	.	.	.
=78	=78	=78	=78	=78	=78	=78	=78	=78
4r	.	4r	.	4d	.	2.r	.	V7/iv
(4EE	.	(4E	.	4r	.	.	.	.
4GG#)	.	4G#)	.	4r	.	.	.	.
=79||	=79||	=79||	=79||	=79||	=79||	=79||	=79||	=79||
*M2/4	*	*M2/4	*	*M2/4	*	*M2/4	*	*
!	!	!	!	!	!	!LO:TX:a:B:t=Allegro	!	!
*MM120	*	*MM120	*	*MM120	*	*MM120	*	*
!	!	!	!	!	!	!LO:TX:a:t=[quarter]=120	!	!
(4AAA	p	(4AA	p	2r	.	2r	.	vi.i
4CC)	.	4C)	.	.	.	.	.	.
=80	=80	=80	=80	=80	=80	=80	=80	=80
(8BBBL	.	(8BBL	.	2r	.	2r	.	i
16CCL	.	16CL	.	.	.	.	.	.
16BBBJJ)	.	16BBJJ)	.	.	.	.	.	.
8AAA'L	.	8AA'L	.	.	.	.	.	.
8CC'J	.	8C'J	.	.	.	.	.	.
=81	=81	=81	=81	=81	=81	=81	=81	=81
8FF'L	.	8F'L	.	2r	.	8r	.	IV
8EE'J	.	8E'J	.	.	.	8r	.	V
8E'L	.	8G#'L	.	.	.	8r	.	.
8D'J	.	8A'J	.	.	.	8r	.	ii.i
=82||	=82||	=82||	=82||	=82||	=82||	=82||	=82||	=82||
*M3/4	*	*M3/4	*	*M3/4	*	*M3/4	*	*
!	!	!	!	!	!	!LO:TX:a:B:t=Tempo I	!	!
[2.C#	pp	[2.A [2.e	pp	2.r	.	4r	.	V6
.	.	.	.	.	.	8.r	.	.
.	.	.	.	.	.	16bbKL	pp	.
.	.	.	.	.	.	8aa	.	.
.	.	.	.	.	.	16r	.	.
.	.	.	.	.	.	16eeJk	.	.
=83	=83	=83	=83	=83	=83	=83	=83	=83
2.C#]	.	2.A_ 2.e_	.	4r	.	4gg	.	.
.	.	.	.	8.r	.	4r	.	.
.	.	.	.	16AKL	pp	.	.	.
.	.	.	.	8e	.	4r	.	.
.	.	.	.	16r	.	.	.	.
.	.	.	.	16fJk	.	.	.	.
=84	=84	=84	=84	=84	=84	=84	=84	=84
(2CC#	.	4.A] 4.e]	.	4g	.	2.r	.	iv6
.	.	.	.	4r	.	.	.	.
.	.	16r	.	.	.	.	.	.
.	.	16C#KL	.	.	.	.	.	.
4BBB-Xt)	>]	8E	.	4r	.	.	.	.
.	.	16r	.	.	.	.	.	.
.	.	16FJk	.	.	.	.	.	.
=85	=85	=85	=85	=85	=85	=85	=85	=85
4AAA	p	4G	.	4r	.	4r	.	V7
4r	.	8.r	.	8.r	.	8.r	.	.
.	.	16c#KL	.	16eKL	.	16aaKL	.	.
(4EE	.	8e	.	8a	.	8gg	.	V43
.	.	16r	.	16r	.	16r	.	.
.	.	16aJk	.	16cc#Jk	.	16eeJk	.	.
=86	=86	=86	=86	=86	=86	=86	=86	=86
2DD	.	4a	.	4dd	.	4ff	.	i
.	.	8.r	.	4r	.	4r	.	.
.	.	16AAKL	.	.	.	.	.	.
4BBB-XT)	>]	8D	.	4r	.	4r	.	VI
.	.	16r	.	.	.	.	.	.
.	.	16EJk	.	.	.	.	.	.
=87	=87	=87	=87	=87	=87	=87	=87	=87
2AAA	p	4F	.	4r	.	4r	.	i64
.	.	8.r	.	8.r	.	8.r	.	.
.	.	16AAKL	.	16dKL	.	16ffKL	.	.
!LO:TX:b:i:t=cresc.	!	!LO:TX:b:i:t=cresc.	!	!LO:TX:b:i:t=cresc.	!	!LO:TX:b:i:t=cresc.	!	!
(4GGT	.	8BB-X	.	8c#	.	8ee	.	#viio43
.	.	16r	.	16r	.	16r	.	.
.	.	16B-XJk	.	16eJk	.	16cc#Jk	.	.
=88	=88	=88	=88	=88	=88	=88	=88	=88
2FF)	.	4A	.	4d	.	4dd	.	i6
.	.	8.r	.	8.r	.	8.r	.	.
.	.	16DKL	.	16FKL	.	16dddKL	.	.
(4EEt	.	8E	.	8G	.	8cccX	.	I.I6
.	.	16r	.	16r	.	16r	.	.
.	.	16cXJk	.	16gJk	.	16aaJk	.	.
=89	=89	=89	=89	=89	=89	=89	=89	=89
2DD)	.	4f	.	4g	.	4bb	.	V43
.	.	8.r	.	8.r	.	8.r	.	.
.	.	16fKL	.	16gKL	.	16bbKL	.	.
(4CCXT	.	8e	.	8g	.	8ccc	.	I
.	.	16r	.	16r	.	16r	.	.
.	.	16eJk	.	16gJk	.	16cccJk	.	.
=90	=90	=90	=90	=90	=90	=90	=90	=90
!	!LO:DY:a	!	!	!	!	!	!	!
8BBBL)	f f	8dL	.	8gL	f	8dddL	f	V65
16r	.	16r	.	16r	.	16r	.	.
16BBBJk	.	16gJk	.	16ffJk	.	16dddJk	.	.
8CCL	.	8g'L	.	8ee'L	.	8cccL	.	I
16r	.	8G'J	.	8e'J	.	16r	.	.
16CJk	.	.	.	.	.	16ggJk	.	.
8DL	.	8BB'L	.	8f'L	.	8ffL	.	viio6
16r	.	8G'J	.	8B'J	.	16r	.	.
16FJk	.	.	.	.	.	16ddJk	.	V2
=91	=91	=91	=91	=91	=91	=91	=91	=91
!LO:TX:b:i:t=sempre	!	!LO:TX:b:i:t=sempre	!	!LO:TX:b:i:t=sempre	!	!LO:TX:b:i:t=sempre	!	!
4E	.	8C'L	.	4c	.	8ccL	.	I6
.	.	8G'	.	.	.	16r	.	.
.	.	.	.	.	.	16ccJk	.	.
8.r	.	8C' 8E	.	8.r	.	4ccc	f	.
.	.	8C'	f	.	.	.	.	.
16EKL	f	.	.	16c	f	.	.	.
8F	.	8D'	.	4cc	.	4r	.	ii43
16r	.	8F'J	.	.	.	.	.	.
16AJk	.	.	.	.	.	.	.	.
=92	=92	=92	=92	=92	=92	=92	=92	=92
4G	.	8EL	.	4r	.	8.r	.	I6
.	.	8eJ 8g	.	.	.	.	.	.
.	.	.	.	.	.	16cc	.	.
8.r	.	8EL	.	8.r	.	4ccc	.	.
.	.	8E	.	.	.	.	.	.
16GKL	.	.	.	16c	.	.	.	.
8A	.	8F	.	4cc	.	8.r	.	IV
16r	.	8F#J	.	.	.	.	.	.
16cJk	.	.	.	.	.	16r	.	#viio/V
=93	=93	=93	=93	=93	=93	=93	=93	=93
(2B	.	8GL	.	4r	.	8.r	.	V
.	.	8dJ	.	.	.	.	.	.
.	.	.	.	.	.	16g	.	.
.	.	8DL	.	8.r	.	4gg	.	.
.	.	8G	.	.	.	.	.	.
.	.	.	.	16G	.	.	.	.
4cT)	.	8E	.	4g	.	4r	.	I6
.	.	8GJ	.	.	.	.	.	.
=94	=94	=94	=94	=94	=94	=94	=94	=94
4d	.	8FXL	.	4r	.	8.r	.	V2
.	.	8D	.	.	.	.	.	.
.	.	.	.	.	.	16g	.	.
8r	.	8BBJ	.	8.r	.	4gg	.	V65
8BB'L	.	16r	.	.	.	.	.	.
.	.	16E	.	16ddKL	.	.	.	.
8E'	.	4g	.	8cc	.	4r	.	I6
8C'J	.	.	.	16r	.	.	.	.
.	.	.	.	16aJk	.	.	.	.
=95	=95	=95	=95	=95	=95	=95	=95	=95
8GG'L	.	8.r	.	4b	.	8.r	.	V
8G'J	.	.	.	.	.	.	.	.
.	.	16DKL	.	.	.	16F#KL	.	.
8D'L	.	8B	.	8.r	.	8G	.	V64
8G'J	.	16r	.	.	.	16r	.	.
.	.	16BJk	.	16bKL	.	16dJk	.	.
8C'L	.	4c	.	8a	.	4e-X	.	#viio43/V
8G'J	.	.	.	16r	.	.	.	.
.	.	.	.	16f#Jk	.	.	.	.
=96	=96	=96	=96	=96	=96	=96	=96	=96
8BB-X'L	.	8.r	.	4g	.	2.r	.	V43
8G'J	.	.	.	.	.	.	.	.
.	.	16C#KL	.	.	.	.	.	.
8BB'L	.	8D	.	8.r	.	.	.	.
8G'J	.	16r	.	.	.	.	.	.
.	.	16EJk	.	16gKL	.	.	.	.
8D'L	.	4F	.	8fX	.	.	.	.
8G'J	.	.	.	16r	.	.	.	.
.	.	.	.	16dJk	.	.	.	.
=97	=97	=97	=97	=97	=97	=97	=97	=97
8C'L	.	2.r	.	2e	.	8.r	.	I
8G'J	.	.	.	.	.	.	.	.
.	.	.	.	.	.	16f#KL	.	.
8E'L	.	.	.	.	.	8g	.	I6
8G'J	.	.	.	.	.	16r	.	.
.	.	.	.	.	.	16ccJk	.	.
8F'L	.	.	.	4dT	.	4b	.	V2
8G'J	.	.	.	.	.	.	.	.
=98	=98	=98	=98	=98	=98	=98	=98	=98
8E'L	.	8.r	.	4c	.	4r	.	I6
8G'J	.	.	.	.	.	.	.	.
.	.	16BKL	.	.	.	.	.	.
8C'L	.	8cX	.	8r	.	8.r	.	I
8G'J	.	16r	.	8c'L	.	.	.	.
.	.	16eJk	.	.	.	16ccKL	.	.
8GG'L	.	8dL	.	8B'	.	8dd	.	V7
8G'J	.	16r	.	8b'J	.	16r	.	.
.	.	16dJk	.	.	.	16ffXJk	.	.
=99	=99	=99	=99	=99	=99	=99	=99	=99
8CL	.	4E 4e	.	8cL	.	4ee	.	I
16r	.	.	.	8cc	.	.	.	.
16CCJk	.	.	.	.	.	.	.	.
4C	.	8.r	.	8c	.	8.r	.	.
.	.	.	.	8ccJ	.	.	.	.
.	.	16C	.	.	.	16eeKL	.	.
4r	.	4c	.	8dL	.	8ff	.	ii2
.	.	.	.	8ccJ	.	16r	.	.
.	.	.	.	.	.	16aaJk	.	.
=100	=100	=100	=100	=100	=100	=100	=100	=100
8.r	.	4r	.	8eL	.	4gg	.	I6
.	.	.	.	8cc	.	.	.	.
16CC	.	.	.	.	.	.	.	.
4C	.	8.r	.	8e	.	8.r	.	I
.	.	.	.	8ccJ	.	.	.	.
.	.	16C	.	.	.	16ggKL	.	.
4r	.	4c	.	8fL	.	8aa	.	I(64)
.	.	.	.	8eJ	.	16r	.	.
.	.	.	.	.	.	16cccJk	.	I
=101	=101	=101	=101	=101	=101	=101	=101	=101
8.r	.	4r	.	8dL	.	(2bb	.	V
.	.	.	.	8g	.	.	.	.
16GG	.	.	.	.	.	.	.	.
4G	.	8.r	.	8d	.	.	.	.
.	.	.	.	8gJ	.	.	.	.
.	.	16G	.	.	.	.	.	.
4r	.	4g	.	8eL	.	4cccT)	.	I6
.	.	.	.	8gJ	.	.	.	.
=102	=102	=102	=102	=102	=102	=102	=102	=102
8.r	.	4r	.	4f	.	4ddd	.	V7
16GG	.	.	.	.	.	.	.	.
8GL	.	8.r	.	8.r	.	8.r	.	.
16r	.	.	.	.	.	.	.	.
16DJk	.	16G	.	16fKL	.	16r	.	V43
8CL	.	4g	.	8e	.	8.r	.	I
16r	.	.	.	16r	.	.	.	.
16AAJk	.	.	.	16cJk	.	16r	.	vi7
=103	=103	=103	=103	=103	=103	=103	=103	=103
4BB	.	8.r	.	4d	.	8.r	.	V6
.	.	16D	.	.	.	16aaKL	.	.
8.r	.	4d	.	8.r	.	8bb	.	.
.	.	.	.	.	.	16r	.	.
16BBKL	.	.	.	16gKL	.	16dddJk	.	.
8AA	.	4r	.	8a	.	8.ccc	.	V43/V
16r	.	.	.	16r	.	.	.	.
16FF#Jk	.	.	.	16ccJk	.	16r	.	V65/V
=104	=104	=104	=104	=104	=104	=104	=104	=104
4GG	.	4r	.	8bL	.	8.r	.	V
.	.	.	.	16r	.	.	.	.
.	.	.	.	16BJk	.	16ff#KL	.	.
8.r	.	8.r	.	4b	.	8gg	.	V6
.	.	.	.	.	.	16r	.	.
16GGKL	.	16EKL	.	.	.	16bbJk	.	.
8FFX	.	8F	.	4r	.	4aa	.	vii%43
16r	.	16r	.	.	.	.	.	.
16DDJk	.	16AJk	.	.	.	.	.	.
=105	=105	=105	=105	=105	=105	=105	=105	=105
(2EE	.	(4G	.	8.r	.	8.r	.	I6
.	.	.	.	16G	.	16bKL	.	.
.	.	4C	.	8gL	.	8cc	.	.
.	.	.	.	16r	.	16r	.	.
.	.	.	.	16GJk	.	16ccJk	.	.
4DDT)	.	4BBt)	.	8gL	.	8ddL	.	V43
.	.	.	.	16r	.	16r	.	.
.	.	.	.	16GJk	.	16ffXJk	.	.
=106	=106	=106	=106	=106	=106	=106	=106	=106
4CC	sf	(2C	sf	8gL	.	(2ee	sf	I
.	.	.	.	16r	.	.	.	.
.	.	.	.	16GJk	.	.	.	.
8.r	.	.	.	8gL	.	.	.	.
.	.	.	.	16r	.	.	.	.
16GGKL	.	.	.	16GJk	.	.	.	.
8FF	.	4DT)	.	8gL	.	4ffT)	.	V43
16r	.	.	.	16r	.	.	.	.
16DDJk	.	.	.	16GJk	.	.	.	.
=107	=107	=107	=107	=107	=107	=107	=107	=107
(2EE	> <	(2C	.	8gL	.	4gg	.	I6
.	.	.	.	16r	.	.	.	.
.	.	.	.	16GJk	.	.	.	.
.	.	.	.	8gL	.	8.r	.	.
.	.	.	.	16r	.	.	.	.
.	.	.	.	16GJk	.	16ccKL	p	.
4DDT)	p [[	4BBt)	p	8gL	.	8dd#X	.	V43
.	.	.	.	16r	.	16r	.	.
.	.	.	.	16GJk	.	16ffJk	.	.
=108	=108	=108	=108	=108	=108	=108	=108	=108
!LO:TX:b:i:t=cresc.	!	!LO:TX:b:i:t=cresc.	!	!LO:TX:b:i:t=cresc.	!	!LO:TX:b:i:t=cresc.	!	!
4CC	[	(2C	.	8gL	.	(2ee	.	I
.	.	.	.	16r	.	.	.	.
.	.	.	.	16GJk	.	.	.	.
8.r	.	.	.	8gL	.	.	.	.
.	.	.	.	16r	.	.	.	.
16GGKL	.	.	.	16GJk	.	.	.	.
8FF	.	4DT)	.	8gL	.	4ffT)	.	V43
16r	.	.	.	16r	.	.	.	.
16DDJk	.	.	.	16GJk	.	.	.	.
=109	=109	=109	=109	=109	=109	=109	=109	=109
4EE	.	(4C	.	8gL	.	(2gg	.	I6
.	.	.	.	16r	.	.	.	.
.	.	.	.	16EJk	.	.	.	.
8.r	.	4E	.	8gL	.	.	.	.
.	.	.	.	16r	.	.	.	.
16EKL	.	.	.	16EJk	.	.	.	.
8D	.	4Bt)	.	8gL	.	4gg#t)	.	V6
16r	.	.	.	16r	.	.	.	.
16BBJk	.	.	.	16EJk	.	.	.	.
.	.	.	.	.	.	32qqff#/LLL	.	.
.	.	.	.	.	.	32qqgg#/JJJ	.	.
=110	=110	=110	=110	=110	=110	=110	=110	=110
8AAL	.	8cL	.	8eL	.	4aa	.	vi
16r	.	16r	.	16r	.	.	.	.
16AJk	.	16cJk	.	16ccJk	.	.	.	.
8GL	.	8cL	.	8b-XL	.	4bb-XT	.	V43/IV
16r	.	16r	.	16r	.	.	.	.
16GJk	.	16cJk	.	16b-Jk	.	.	.	.
.	.	.	.	.	.	32qqaa/LLL	.	IV
.	.	.	.	.	.	32qqbb-/JJJ	.	.
8FL	.	8cL	.	8aL	.	4ccc	.	.
16r	.	16r	.	16r	.	.	.	.
16FJk	.	16AJk	.	16aJk	.	.	.	.
=111	=111	=111	=111	=111	=111	=111	=111	=111
4F'	f	4A'	f	4a'	f	4ddd'	f	vi.iv6
4F'	.	4A'	.	4aa'	.	4ddd#X'	.	.It6
4E'	.	4B'	.	4b' 4gg#	.	4eee'	.	V
=112	=112	=112	=112	=112	=112	=112	=112	=112
2.r	.	4r	.	4r	.	4r	.	.
.	.	4a	p	4ee	p	4ccc	p	i\\
.	.	4r	.	4r	.	4r	.	.
=113	=113	=113	=113	=113	=113	=113	=113	=113
4r	.	4r	.	4r	.	4r	.	.
4A	p	4c	.	4f# 4dd	.	4ddd	.	I.V43/V
4r	.	4r	.	4r	.	4r	.	.
=114	=114	=114	=114	=114	=114	=114	=114	=114
4G'	f	4B'	f	4gX' 4dd	f	4bb'	f	V
4B'	.	4d'	.	4g'	.	4gg'	.	V6
4c#'	.	4e'	.	4g' 4ee	.	4aa'	.	V65/ii
=115	=115	=115	=115	=115	=115	=115	=115	=115
4r	.	4r	.	4r	.	4r	.	.
4d	p	4d	p	4a	p	4ff	p	ii\\
4r	.	4r	.	4r	.	4r	.	.
=116	=116	=116	=116	=116	=116	=116	=116	=116
4r	.	4r	.	4r	.	4r	.	.
4G	.	4G 4B	.	4d 4b	.	4gg	.	V
4r	.	4r	.	4r	.	4r	.	.
=117	=117	=117	=117	=117	=117	=117	=117	=117
8cX'L	f	2.r	.	8e'L	f	4ee	f	I
8B-X'	.	.	.	8d'	.	.	.	.
.	.	.	.	.	.	16qqg/	.	vi7
8A'	.	.	.	8c'	.	4gg	.	.
8c#'	.	.	.	8e'	.	.	.	.
.	.	.	.	.	.	16qqa/	.	vii%7
8B'	.	.	.	8d'	.	4aa	.	.
8A'J	.	.	.	8c'J	.	.	.	.
=118	=118	=118	=118	=118	=118	=118	=118	=118
2.r	.	8F'L	p	8A'L	p	8.r	.	ii6
.	.	8E'	.	8G'	.	.	.	.
.	.	.	.	.	.	(16f	p	.
.	.	8D'	.	8F'	.	4ff)	.	ii
.	.	8F'	.	8A'	.	.	.	.
.	.	8E'	.	8G'	.	4r	.	.
.	.	8D'J	.	8F'J	.	.	.	.
=119	=119	=119	=119	=119	=119	=119	=119	=119
8B'L	p	8gL	.	8dd'L	.	8.r	.	V6
8A'	.	8g	.	8ccX'	.	.	.	.
.	.	.	.	.	.	(16g	.	.
8G'	.	8g	.	8b'	.	4gg)	.	V
8B'	.	8g	.	8dd'	.	.	.	.
8A'	.	8g	.	8cc'	.	4r	.	.
8G'J	.	8gJ	.	8b'J	.	.	.	.
=120	=120	=120	=120	=120	=120	=120	=120	=120
8GL	.	8fL	.	8ddL	.	8aa-XL	.	V7(b9)
8GJ	.	8dJ	.	8bJ	.	16r	.	.
.	.	.	.	.	.	(16ggJk	.	.
!LO:TX:b:i:t=cresc.	!	!LO:TX:b:i:t=cresc.	!	!LO:TX:b:i:t=cresc.	!	!LO:TX:b:i:t=cresc.	!	!
8GL	.	8dL	.	8bL	.	8aaL)	.	V7(9)
8G	.	8c	.	8a	.	16r	.	.
.	.	.	.	.	.	(16ggJk	.	.
8G	.	8B	.	8g	.	8bbL)	.	V7
8GJ	.	8dJ	.	8fJ	.	16r	.	.
.	.	.	.	.	.	(16ggJk	.	.
=121	=121	=121	=121	=121	=121	=121	=121	=121
8GL	.	8cL	.	8eL	.	8cccL)	.	V(64)
8GG	.	8B	.	8d	.	16r	.	.
.	.	.	.	.	.	(16ggJk	.	.
8GG	.	8A	.	8c	.	8dddL)	.	V7
8GG	.	8G	.	8B	.	16r	.	.
.	.	.	.	.	.	(16ggJk	.	.
8GG	.	8F	.	8A	.	8eeeL)	.	V(64)
8GGJ	.	8EJ	.	8GJ	f	16r	.	.
.	.	.	.	.	.	(16ggJk	.	.
=122	=122	=122	=122	=122	=122	=122	=122	=122
8GGL	f	8DL	f	8FL	.	8fffL)	f	V7
8GG	.	8CJ	.	8EJ	.	16r	.	.
.	.	.	.	.	.	(16gJk	.	.
8GG	.	8BBL	.	8dL	.	8ffL)	.	.
8FF	.	8AAJ	.	8dJ	.	16r	.	ii6
.	.	.	.	.	.	16gg'Jk	.	.
8EE	.	8GL	.	8cL	.	8aa'L	.	vi43
8DDJ	.	8FJ	.	8GJ	.	16r	.	V43
.	.	.	.	.	.	16bb'Jk	.	.
=123	=123	=123	=123	=123	=123	=123	=123	=123
4CC	.	4C 4E	.	4G	.	4ccc	.	I\\
8C	.	8c	.	8E 8c	.	8cc	.	.
16r	.	16r	.	16r	.	16r	.	.
16GG#KL	ff	16G#KL	ff	16G#KL	ff	16G#KL	ff	.
8AA	.	8A	.	8A	.	8A	.	.
16r	.	16r	.	16r	.	16r	.	.
16CJk	.	16CJk	.	16cJk	.	16cJk	.	.
=124:|!	=124:|!	=124:|!	=124:|!	=124:|!	=124:|!	=124:|!	=124:|!	=124:|!
8CCL	f	8EL	f	4G	f	4ccc	f	I\\
16r	.	16r	.	.	.	.	.	.
16EEJk	.	16EJk	.	.	.	.	.	.
8FF#L	.	8F#L	.	8cL	.	8ccL	.	#viio/V
16r	.	16r	.	16r	.	16r	.	.
16AAJk	.	16AJk	.	16cc'Jk	.	16ccc'Jk	.	.
4GG	.	4G	.	8b'L	.	8bb'L	.	V
.	.	.	.	16r	.	16r	.	.
.	.	.	.	16g#'Jk	.	16gg#'Jk	.	.
=125	=125	=125	=125	=125	=125	=125	=125	=125
8.r	.	8.r	.	4a	.	4aa	.	.
16CC	.	16C	.	.	.	.	.	.
8DDL	.	8DL	.	8AL	.	8aL	.	ii6
16r	.	16r	.	16r	.	16r	.	.
16FFXJk	.	16FXJk	.	16aJk	.	16aaJk	.	.
4EE	.	4E	.	8gXL	.	8ggXL	.	V6
.	.	.	.	16r	.	16r	.	.
.	.	.	.	16eJk	.	16eeJk	.	.
=126	=126	=126	=126	=126	=126	=126	=126	=126
8.r	.	8.r	.	4f	.	4ff	.	.
16AAA	.	16AA	.	.	.	.	.	.
8BBBL	.	8BBL	.	8FL	.	8fL	.	viio
16r	.	16r	.	16r	.	16r	.	.
16EEJk	>	16DJk	>	16fJk	>	16ffJk	>	.
8CCL	.	8CL	.	8eL	.	8eeL	.	I
16r	.	16r	.	16r	.	16r	.	.
16CJk	]]	16EJk	]]	16GJk 16c	]]	16ccJk	]]	.
=127	=127	=127	=127	=127	=127	=127	=127	=127
(2BB	p	2.D	p	8dL	p	(2dd	p	V65
.	.	.	.	16r	.	.	.	.
.	.	.	.	16gJk	.	.	.	.
.	.	.	.	8gL	.	.	.	.
.	.	.	.	16r	.	.	.	.
.	.	.	.	16gJk	.	.	.	.
4AAT)	.	.	.	8f#L	.	4ccT)	.	V43/V
.	.	.	.	16r	.	.	.	.
.	.	.	.	16f#Jk	.	.	.	.
=128	=128	=128	=128	=128	=128	=128	=128	=128
4GG	.	4D	.	8gL	.	4b	.	V
.	.	.	.	16r	.	.	.	.
.	.	.	.	16GJk	.	.	.	.
8.r	.	8.r	.	8GL	.	8.r	.	.
.	.	.	.	16r	.	.	.	.
16DKL	.	16BKL	.	16GJk	.	16ffKL	.	.
8C	.	8c	.	8GL	.	8ee	.	I
16r	.	16r	.	16r	.	16r	.	.
16AA#XJk	.	16eJk	.	16GJk	.	16cc#Jk	.	#vio7
=129	=129	=129	=129	=129	=129	=129	=129	=129
(2BB	<	(4d	< >	8GL	<	(2dd	<	V65
.	.	.	.	16r	.	.	.	.
.	.	.	.	16gJk	.	.	.	.
.	.	2D)	] ]]	8gL	.	.	.	.
.	.	.	.	16r	.	.	.	.
.	.	.	.	16gJk	.	.	.	.
4AAT)	[ > ]]	.	.	8gL	[ >	4ccXT)	[ > ]]	ii43
.	.	.	.	16r	.	.	.	.
.	.	.	.	16fXJk	]]	.	.	.
=130	=130	=130	=130	=130	=130	=130	=130	=130
4GG	.	4D	.	8fL	.	4b	.	V7
.	.	.	.	16r	.	.	.	.
.	.	.	.	16fJk	.	.	.	.
(4AAA	.	8CL	.	8fL	.	8.r	.	IV6
.	.	16r	.	16r	.	.	.	.
.	.	16CJk	.	16fJk	.	16ggKL	.	.
4BBBt)	.	8DL	.	8fL	.	8ff	.	V65
.	.	16r	.	16r	.	16r	.	.
.	.	16GJk	.	16fJk	.	16dd#XJk	.	.
=131	=131	=131	=131	=131	=131	=131	=131	=131
[2.CC	.	(2G	.	8eL	.	(2ee	.	I[I64
.	.	.	.	16r	.	.	.	.
.	.	.	.	16BJk	.	.	.	.
.	.	.	.	8cL	.	.	.	.
.	.	.	.	16r	.	.	.	.
.	.	.	.	16eJk	.	.	.	.
.	.	4FT)	.	8gL	.	4ddT)	.	V2
.	.	.	.	16r	.	.	.	.
.	.	.	.	16bJk	.	.	.	.
=132	=132	=132	=132	=132	=132	=132	=132	=132
!LO:TX:a:i:t=cresc.	!	!	!	!	!	!	!	!
2.CC_	.	8EL	.	8ccL	.	4cc	.	I6
.	.	16r	.	16r	.	.	.	.
.	.	16BBJk	.	16dJk	.	.	.	.
.	.	8CL	.	8eL	.	8.r	.	I
.	.	16r	.	16r	.	.	.	.
!	!	!LO:TX:b:i:t=cresc.	!	!LO:TX:b:i:t=cresc.	!	!LO:TX:b:i:t=cresc.	!	!
.	.	16EJk	.	16gJk	.	16ggKL	.	.
.	.	8AAL	.	8cL	.	8ff	.	IV6
.	.	16r	.	16r	.	16r	.	.
.	.	16BBJk	.	16GJk	.	16dd#XJk	.	V+6
=133	=133	=133	=133	=133	=133	=133	=133	=133
!	!	!LO:TX:a:i:t=dim.	!	!	!	!	!	!
!LO:TX:b:i:t=dim.	!	!LO:TX:b:i:t=dim.	!	!	!	!LO:TX:b:i:t=dim.	!	!
2.CC_	.	8CL	.	(2G	.	(2ee	.	I
.	.	16r	.	.	.	.	.	.
.	.	16BBJk	.	.	.	.	.	.
.	.	8CL	.	.	.	.	.	.
.	.	16r	.	.	.	.	.	.
.	.	16EJk	.	.	.	.	.	.
.	.	8GL	.	4FT)	.	4ddT)	.	V2
.	.	16r	.	.	.	.	.	.
.	.	16BJk	.	.	.	.	.	.
=134	=134	=134	=134	=134	=134	=134	=134	=134
2.CC_	.	8cL	.	8EL	.	(2cc	.	I
.	.	16r	.	16r	.	.	.	.
.	.	16BBJk	.	16dJk	.	.	.	.
.	.	8CL	.	8eL	.	.	.	.
.	.	16r	.	16r	.	.	.	.
.	.	16DJk	.	16gJk	.	.	.	.
.	.	8DL	.	8fL	.	4b-XT)	.	viio/IV
.	.	16r	.	16r	.	.	.	.
.	.	16EJk	.	16gJk	.	.	.	.
=135	=135	=135	=135	=135	=135	=135	=135	=135
2.CC_	.	8FL	.	8aL	.	(2a	.	IV6
.	.	16r	.	16r	.	.	.	.
.	.	16AAJk	.	16cJk	.	.	.	.
.	.	8AAL	.	8cL	.	.	.	.
.	.	16r	.	16r	.	.	.	.
.	.	16AAJk	.	16cJk	.	.	.	.
.	.	8BBL	p	8dL	p	4a-Xt)	p	viio7
.	.	16r	.	16r	.	.	.	.
.	.	16DJk	.	16BJk	.	.	.	.
=136	=136	=136	=136	=136	=136	=136	=136	=136
!	!	!LO:TX:a:i:t=piu piano	!	!LO:TX:a:i:t=piu piano	!	!LO:TX:a:i:t=piu piano	!	!
2.CC_	.	8EL	.	8cL	.	(2g	.	I6
.	.	16r	.	16r	.	.	.	.
.	.	16DJk	.	16BJk	.	.	.	.
.	.	8EL	.	8cL	.	.	.	.
.	.	16r	.	16r	.	.	.	.
.	.	16cJk	.	16eJk	.	.	.	.
.	.	8BL	.	8fL	.	4a-Xt)	.	viio7
.	.	16r	.	16r	.	.	.	.
.	.	16BJk	.	16fJk	.	.	.	.
=137	=137	=137	=137	=137	=137	=137	=137	=137
2.CC_	.	8cL	pp	8eL	pp	(2g	pp	I
.	.	16r	.	16r	.	.	.	.
.	.	16dJk	.	16BJk	.	.	.	.
.	.	8eL	.	8cL	.	.	.	.
.	.	16r	.	16r	.	.	.	.
.	.	16cJk	.	16eJk	.	.	.	.
.	.	8BL	.	8fL	.	4A-Xt	.	viio2
.	.	16r	.	16r	.	.	.	.
.	.	16BJk	.	16fJk	.	.	.	.
=138	=138	=138	=138	=138	=138	=138	=138	=138
2.CC_	.	8cL	.	8eL	.	2G	.	V64
.	.	16r	.	16r	.	.	.	.
.	.	16DJk	.	16BJk	.	.	.	.
.	.	8EL	.	8cL	.	.	.	.
.	.	16r	.	16r	.	.	.	.
.	.	16CJk	.	16EJk	.	.	.	.
.	.	8BBL	.	8FL	.	4A-Xt)	.	viio7
.	.	16r	.	16r	.	.	.	.
.	.	16BBJk	.	16FJk	.	.	.	.
=139	=139	=139	=139	=139	=139	=139	=139	=139
4CC]	.	4C	.	4E	.	4G	.	I]
8.r	.	8.r	.	8.r	.	8.r	.	.
!	!LO:DY:a	!	!	!	!	!	!	!
16cKL	pp pp	16cKL	.	16eKL	pp	16gKL	pp	.
8B	.	8d	.	8d	.	8g	.	V7
16r	.	16r	.	16r	.	16r	.	.
16GJk	.	16dJk	.	16fJk	.	16gJk	.	.
=140	=140	=140	=140	=140	=140	=140	=140	=140
4c	.	4c	.	4e	.	4g	.	I\\
4c	.	4c	.	4e	.	4g	.	.
4r	.	4r	.	4r	.	4r	.	.
=141	=141	=141	=141	=141	=141	=141	=141	=141
4r	.	4r	.	4r	.	2.r	.	V7
8.r	.	8.r	.	8.r	.	.	.	.
!LO:TX:a:i:t=sempre pp	!	!LO:TX:b:i:t=sempre pp	!	!LO:TX:b:i:t=sempre pp	!	!	!	!
16cKL	.	16eKL	.	16gKL	.	.	.	.
8B	.	8d	.	8g	.	.	.	.
16r	.	16r	.	16r	.	.	.	.
16GJk	.	16dJk	.	16fJk 16g	.	.	.	.
=142	=142	=142	=142	=142	=142	=142	=142	=142
4c	.	4e	.	4e 4g	.	2.r	.	I\\
4c	.	4e	.	4g	.	.	.	.
4r	.	4r	.	4r	.	.	.	.
=143	=143	=143	=143	=143	=143	=143	=143	=143
4r	.	4r	.	4r	.	2.r	.	.
4c	.	4e	.	4g	.	.	.	.
4r	.	4r	.	4r	.	.	.	.
=144	=144	=144	=144	=144	=144	=144	=144	=144
4r	.	4r	.	4r	.	2.r	.	i
4c	.	4e-X	.	4g	.	.	.	.
4r	.	4r	.	4r	.	.	.	.
=145	=145	=145	=145	=145	=145	=145	=145	=145
4r	.	4r	.	4r	.	2.r	.	.
4c	.	4e-X	.	4g	.	.	.	.
4r	.	4r	.	4r	.	.	.	.
=146||	=146||	=146||	=146||	=146||	=146||	=146||	=146||	=146||
*M3/4	*	*M3/4	*	*M3/4	*	*M3/4	*	*
!	!	!	!	!	!	!LO:TX:a:B:t=Presto	!	!
*MM160	*	*MM160	*	*MM160	*	*MM160	*	*
!	!	!	!	!	!	!LO:TX:a:t=[quarter]=160	!	!
4r	.	4r	.	4r	.	4r	.	.
!LO:TX:b:i:t=cresc.	!	!LO:TX:b:i:t=cresc.	!	!LO:TX:b:i:t=cresc.	!	!	!	!
4c	.	4e-X	.	4g	.	2r	.	i.i
4c	.	4e-	.	4g	.	.	.	.
=147	=147	=147	=147	=147	=147	=147	=147	=147
4c	.	4e-X	.	4g	.	2.r	.	.
4c	.	4e-	.	4g	.	.	.	.
4c	.	4e-	.	4g	.	.	.	.
=148	=148	=148	=148	=148	=148	=148	=148	=148
4c	.	4e-X	.	4g	.	2.r	.	.
4c	.	4e-	.	4g	.	.	.	.
4c	.	4e-	.	4g	.	.	.	.
=149	=149	=149	=149	=149	=149	=149	=149	=149
4c	.	4e-X	.	4g	.	4r	.	.
!	!	!	!	!	!	!LO:TX:a:i:t=cresc.	!	!
4c	.	4e-	.	4g	.	4gg	.	.
4c	.	4e-	.	4g	.	4gg	.	.
=150!|:	=150!|:	=150!|:	=150!|:	=150!|:	=150!|:	=150!|:	=150!|:	=150!|:
*k[b-e-a-]	*	*k[b-e-a-]	*	*k[b-e-a-]	*	*k[b-e-a-]	*	*
*c:	*	*c:	*	*c:	*	*c:	*	*
4c	f	4e-	f	4c 4g	f	4gg	f	.
4CC	pp	4e-	pp	4c 4g	pp	(4B	pp	.
4CC	.	4e-	.	4c 4g	.	4c	.	.
=151	=151	=151	=151	=151	=151	=151	=151	=151
4CC	.	4e-	.	4c 4g	.	4e-X	.	.
4r	.	4e-	.	4c 4g	.	4g	.	.
4r	.	4e-	.	4c 4g	.	4cc	.	.
=152	=152	=152	=152	=152	=152	=152	=152	=152
4r	.	4e-	.	4c 4g	.	4ee-	.	i6
4c	.	4e-	.	4c 4g	.	4cc	.	i
4c	.	4e-	.	4c 4g	.	4dd	.	.
=153	=153	=153	=153	=153	=153	=153	=153	=153
4c	.	4e-	.	4c 4g	.	4ee-	.	.
4r	.	4e-	.	4c 4g	.	4dd	.	.
4r	.	4e-	.	4c 4g	.	4cc	.	.
=154	=154	=154	=154	=154	=154	=154	=154	=154
4r	.	4f	.	4d 4g	.	4b	.	V43
4G	.	4f	.	4d 4g	.	4dd	.	V7
4G	.	4f	.	4d 4g	.	4ff	.	.
=155	=155	=155	=155	=155	=155	=155	=155	=155
4G	.	4f	.	4d 4g	.	4aa-	.	.
4r	.	4f	.	4d 4g	.	4gg	.	.
4r	.	4f	.	4d 4g	.	4ff	.	.
=156	=156	=156	=156	=156	=156	=156	=156	=156
4r	.	4f	.	4d 4g	.	4ee-	.	V43
4GG	.	4f	.	4d 4g	.	4ff	.	V7
4GG	.	4f	.	4d 4g	.	4dd	.	.
=157	=157	=157	=157	=157	=157	=157	=157	=157
4GG	.	4f	.	4d 4g	.	4cc	.	.
4r	.	4f	.	4d 4g	.	4dd	.	.
4r	.	4f	.	4d 4g	.	4b	.	.
=158	=158	=158	=158	=158	=158	=158	=158	=158
!	!	!LO:TX:a:i:t=cresc.	!	!LO:TX:a:i:t=cresc.	!	!LO:TX:a:i:t=cresc.	!	!
4r	.	4e-	.	4c 4g	.	4cc	.	i6
!LO:TX:b:i:t=cresc.	!	!	!	!	!	!	!	!
4CC	.	4e-	.	4c 4g	.	4b	.	i
4CC	.	4e-	.	4c 4g	.	4cc	.	.
=159	=159	=159	=159	=159	=159	=159	=159	=159
4CC	.	4e-	.	4c 4g	.	4ee-	.	.
4r	.	4e-	.	4c 4g	.	4gg	.	.
4r	.	4e-	.	4c 4g	.	4ccc	.	.
=160	=160	=160	=160	=160	=160	=160	=160	=160
4r	.	4e-	.	4c 4g	.	4eee-	.	i6
4c	.	4e-	.	4c 4g	.	4ccc	.	i
4c	.	4e-	.	4c 4g	.	4ddd	.	.
=161	=161	=161	=161	=161	=161	=161	=161	=161
4c	.	4e-	.	4c 4g	.	4eee-	.	.
4r	.	4e-	.	4c 4g	.	4ccc	.	.
4r	.	4e-	.	4c 4g	.	4bb-X	.	.
=162	=162	=162	=162	=162	=162	=162	=162	=162
4r	.	4c	.	4e-	.	4aa	.	vio6
4F	.	4e-	.	4f	.	4bb-	.	V7/VII
4F	.	4e-	.	4f	.	4ccc	.	.
=163	=163	=163	=163	=163	=163	=163	=163	=163
4F	.	4c	.	4e-	.	4ff	.	.
4r	.	4e-	.	4f	.	4gg	.	.
4r	.	4e-	.	4f	.	4aa	.	.
=164	=164	=164	=164	=164	=164	=164	=164	=164
4r	.	4d	.	4f	.	4bb-	.	.bVII.I6
4FF	.	4d	.	4f	.	4aa	.	I64
4FF	.	4d	.	4f	.	4bb-	.	.
=165	=165	=165	=165	=165	=165	=165	=165	=165
4FF	.	4d	.	4f	.	4ddd	.	.
4r	.	4d	.	4f	.	4ccc	.	I6
4r	.	4d	.	4f	.	4bb-	.	.
=166	=166	=166	=166	=166	=166	=166	=166	=166
4r	.	4e-	.	4f	.	4aa	.	V2
4F	.	4e-	.	4f	.	4bb-	.	V7
4F	.	4e-	.	4f	.	4ccc	.	.
=167	=167	=167	=167	=167	=167	=167	=167	=167
4F	.	4e-	.	4f	.	4ff	.	.
4r	.	4e-	.	4f	.	4gg	.	.
4r	.	4e-	.	4f	.	4aa	.	.
=168	=168	=168	=168	=168	=168	=168	=168	=168
4r	.	4d	f	4f	f	4bb-	f	I6
4BB-	f	4d	.	4f	.	4ccc	.	I
4BB-	.	4d	.	4f	.	4ddd)	.	.
=169	=169	=169	=169	=169	=169	=169	=169	=169
4B-	p	4d	p	4f	p	4bb-	p	I\\
!LO:TX:b:i:t=cresc.	!	!LO:TX:b:i:t=cresc.	!	!LO:TX:b:i:t=cresc.	!	!LO:TX:b:i:t=cresc.	!	!
4c	.	4c	.	4e-	.	4gg	.	i.i
4c	.	4e-	.	4c 4g	.	4gg	.	.
=170:|!	=170:|!	=170:|!	=170:|!	=170:|!	=170:|!	=170:|!	=170:|!	=170:|!
4BB-	f	4d	f	4f	f	4bb-	f	.bVII.I
(4DD	.	(4D	.	(4d	.	(4d	.	.
4EE-	.	4E-	.	4e-	.	4e-	.	.
=171	=171	=171	=171	=171	=171	=171	=171	=171
!	!LO:DY:a	!	!	!	!	!	!	!
4FF')	ff ff	4F')	.	4f')	ff	4f')	ff	V
(4GG	.	(4G	.	(4G	.	(4g	.	.
4AA	.	4A	.	4A	.	4a	.	.
=172	=172	=172	=172	=172	=172	=172	=172	=172
4BB-')	.	4B-')	.	4B-')	.	4b-')	.	I
(4DD	.	(4D	.	(4d	.	(4d	.	.
4EE-	.	4E-	.	4e-	.	4e-	.	.
=173	=173	=173	=173	=173	=173	=173	=173	=173
4FF')	.	4F')	.	4f')	.	4f')	.	V
(4GG	.	(4G	.	(4G	.	(4g	.	.
4AA	.	4A	.	4A	.	4a	.	.
=174	=174	=174	=174	=174	=174	=174	=174	=174
4BB-')	.	4B-')	.	4B-')	.	4b-')	.	I
(4DD	.	(4D	.	(4d	.	(4d	.	.
4EE-	.	4E-	.	4e-	.	4e-	.	.
=175	=175	=175	=175	=175	=175	=175	=175	=175
4FF')	.	4F')	.	4f')	.	4f')	.	V
(4GG	.	(4G	.	(4G	.	(4g	.	.
4AA	.	4A	.	4A	.	4a	.	.
=176	=176	=176	=176	=176	=176	=176	=176	=176
4BB-')	.	4B-')	.	4B-')	.	4b-')	.	I
4r	.	4r	.	4r	.	4r	.	.
4C	.	4C	.	4c	.	4cc	.	V64
=177	=177	=177	=177	=177	=177	=177	=177	=177
2.BBB-	f	2.BB-	f	2.B- 2.d	f	[2.dd	f	I[I
=178	=178	=178	=178	=178	=178	=178	=178	=178
2.BBB-	sf	2.D	sf	2.B- 2.d	sf	4dd]	.	I6
.	.	.	.	.	.	(4cc	.	.
.	.	.	.	.	.	4b-	.	.
=179	=179	=179	=179	=179	=179	=179	=179	=179
2.BBB-	.	2.C#	.	2.c#	.	4a')	.	#iio
.	.	.	.	.	.	(4b-	.	.
.	.	.	.	.	.	4g	.	.
=180	=180	=180	=180	=180	=180	=180	=180	=180
2.BBB-	sf	2.C#	sf	2.c#	sf	4f')	.	.
.	.	.	.	.	.	(4g	.	.
.	.	.	.	.	.	4e	.	.
=181	=181	=181	=181	=181	=181	=181	=181	=181
2.BBB-	.	2.D	.	2.B- 2.d	.	[2.f)	.	I6
=182	=182	=182	=182	=182	=182	=182	=182	=182
2.BBB-	sf	2.D	sf	2.B- 2.d	sf	4f]	.	.
.	.	.	.	.	.	(4e-X	.	.
.	.	.	.	.	.	4d	.	.
=183	=183	=183	=183	=183	=183	=183	=183	=183
2.BBB-	.	2.E-X	.	2.G-	.	4c')	.	iio6
.	.	.	.	.	.	(4d	.	.
.	.	.	.	.	.	4B	.	.
=184	=184	=184	=184	=184	=184	=184	=184	=184
2.BBB-	.	2.E-X	.	2.G-	.	4c')	.	.
.	.	.	.	.	.	(4c	.	.
.	.	.	.	.	.	4d	.	.
=185	=185	=185	=185	=185	=185	=185	=185	=185
2.BBB-	.	2.D	.	2.F	.	(2B-X)	.	I6
.	.	.	.	.	.	[4dd)	.	.
=186	=186	=186	=186	=186	=186	=186	=186	=186
2.BBB-	sf	2.D	sf	2.d	sf	4dd]	.	.
.	.	.	.	.	.	(4cc	.	.
.	.	.	.	.	.	4b-	.	.
=187	=187	=187	=187	=187	=187	=187	=187	=187
2.BBB-	.	2.D	.	2.d	.	4a')	.	.
.	.	.	.	.	.	(4cc	.	.
.	.	.	.	.	.	4b-	.	.
=188	=188	=188	=188	=188	=188	=188	=188	=188
2.BBB-	sf	2.D	sf	2.d	sf	4a')	.	vi64]
.	.	.	.	.	.	(4b-	.	.
.	.	.	.	.	.	4g	.	.
=189	=189	=189	=189	=189	=189	=189	=189	=189
2.AAA	.	2.C	.	2.c	.	4f#')	.	v.#viio6
.	.	.	.	.	.	(4a	.	.
.	.	.	.	.	.	4cc	.	.
=190	=190	=190	=190	=190	=190	=190	=190	=190
2.AAA	sf	2.C	sf	2.c	sf	4ee-X')	.	iio
.	.	.	.	.	.	(4dd	.	.
.	.	.	.	.	.	4cc	.	.
=191	=191	=191	=191	=191	=191	=191	=191	=191
2.DD	.	2.C	.	2.c	.	4b-')	.	V7
.	.	.	.	.	.	(4cc	.	.
.	.	.	.	.	.	4a	.	.
=192	=192	=192	=192	=192	=192	=192	=192	=192
2.DD	sf	2.d	sf	2.c	sf	4g')	.	.
.	.	.	.	.	.	(4a	.	.
.	.	.	.	.	.	4f#	.	.
=193	=193	=193	=193	=193	=193	=193	=193	=193
4GG	pp	4d	pp	4B-	pp	4g')	pp	i
4G	.	4B-	.	4d	.	(4f#	.	.
4G	.	4B-	.	4d	.	4g	.	.
=194	=194	=194	=194	=194	=194	=194	=194	=194
4G	.	4B-	.	4d	.	4b-	.	.
4r	.	4B-	.	4d	.	4dd	.	.
4r	.	4B-	.	4d	.	4gg	.	.
=195	=195	=195	=195	=195	=195	=195	=195	=195
4r	.	4B-	.	4d	.	4bb-	.	i6
4c#	.	4B-	.	4d	.	4gg	.	i6(+#4)
4c#	.	4B-	.	4d	.	4aa	.	.
=196	=196	=196	=196	=196	=196	=196	=196	=196
4d	.	4B-	.	4d	.	4bb-	.	i6
4r	.	4B-	.	4d	.	4aa	.	.
4r	.	4B-	.	4d	.	4gg	.	.
=197	=197	=197	=197	=197	=197	=197	=197	=197
4r	.	4c	.	4d	.	4ff#	.	V2
4D	.	4c	.	4d	.	4aa	.	V7
4D	.	4c	.	4d	.	4ccc	.	.
=198	=198	=198	=198	=198	=198	=198	=198	=198
4D	.	4c	.	4d	.	4eee-X	.	.
4r	.	4c	.	4d	.	4ddd	.	.
4r	.	4c	.	4d	.	4ccc	.	.
=199	=199	=199	=199	=199	=199	=199	=199	=199
4r	.	4c	.	4d	.	4bb-	.	V2
4DD	.	4c	.	4d	.	4ccc	.	V7
4DD	.	4c	.	4d	.	4aa	.	.
=200	=200	=200	=200	=200	=200	=200	=200	=200
4DD	.	4c	.	4d	.	4gg	.	.
4r	.	4c	.	4d	.	4aa	.	.
4r	.	4c	.	4d	.	4ff#	.	.
=201	=201	=201	=201	=201	=201	=201	=201	=201
!LO:TX:b:i:t=cresc.	!	!LO:TX:b:i:t=cresc.	!	!LO:TX:b:i:t=cresc.	!	!LO:TX:b:i:t=cresc.	!	!
4r	.	4B-	.	4d	.	4gg	.	i6
4GG	.	4B-	.	4d	.	4ff#	.	i
4GG	.	4B-	.	4d	.	4gg	.	.
=202	=202	=202	=202	=202	=202	=202	=202	=202
4GG	.	4B-	.	4d	.	4bb-	.	.
4r	.	4B-	.	4d	.	4ddd	.	i6
4r	.	4B-	.	4d	.	4gg	.	.
=203	=203	=203	=203	=203	=203	=203	=203	=203
4r	.	4B-	.	4d	.	4bb-	.	.
4G	.	4B-	.	4d	.	4gg	.	i
4G	.	4B-	.	4d	.	4aa	.	.
=204	=204	=204	=204	=204	=204	=204	=204	=204
4G	.	4B-	.	4d	.	4bb-)	.	.
(4E-X	.	(4E-X	.	(4e-X	.	(4G	.	VI
4D	.	4FX	.	4fX	.	4A-X	.	vo
=205	=205	=205	=205	=205	=205	=205	=205	=205
4C')	ff	4G')	ff	4g')	ff	4B-')	ff	iv7
(4BB-	.	(4A-X	.	(4a-X	.	(4c	.	.
4AA-X	.	4B-	.	4b-	.	4d	.	.
=206	=206	=206	=206	=206	=206	=206	=206	=206
4GG')	.	4B-')	.	4b-')	.	4e-')	.	VI6
(4E-	.	(4e-	.	(4g	.	(4G	.	.
4D	.	4d	.	4a-	.	4A-	.	.
=207	=207	=207	=207	=207	=207	=207	=207	=207
4C')	.	4c')	.	4b-')	.	4B-')	.	iv7
(4BB-	.	(4B-	.	(4cc	.	(4c	.	.
4AA-	.	4A-	.	4dd	.	4d	.	.
=208	=208	=208	=208	=208	=208	=208	=208	=208
4GG')	.	4G')	.	4ee-')	.	4e-')	.	VI6
(4E-	.	(4e-	.	(4g	.	(4G	.	.
4D	.	4d	.	4a-	.	4A-	.	.
=209	=209	=209	=209	=209	=209	=209	=209	=209
4C')	.	4c')	.	4b-')	.	4B-')	.	iv7
((4BB-	.	(4B-	.	(4cc	.	(4c	.	.
4AA-	.	4A-	.	4dd	.	4d	.	.
=210	=210	=210	=210	=210	=210	=210	=210	=210
4GG'))	.	4G')	.	4ee-')	.	4e-')	.	.bIII.I6
(4GG	.	(4G	.	(4ee-	.	(4e-	.	.
4FF	.	4F	.	4ff	.	4f	.	.
=211	=211	=211	=211	=211	=211	=211	=211	=211
2.EE-)	f	2.E-)	f	2.gg)	f	[2.g)	f	I[I
=212	=212	=212	=212	=212	=212	=212	=212	=212
2.EE-	sf	2.G	sf	2.B-	sf	4g]	.	I6
.	.	.	.	.	.	(4f	.	.
.	.	.	.	.	.	4e-	.	.
=213	=213	=213	=213	=213	=213	=213	=213	=213
2.EE-	.	2.F#	.	2.c	.	4d')	.	#iio
.	.	.	.	.	.	(4e-	.	.
.	.	.	.	.	.	4c	.	.
=214	=214	=214	=214	=214	=214	=214	=214	=214
2.EE-	sf	2.F#	sf	2.c 2.cc	sf	4B-')	.	.
.	.	.	.	.	.	(4c	.	.
.	.	.	.	.	.	4A	.	.
=215	=215	=215	=215	=215	=215	=215	=215	=215
2.EE-	.	2.G	.	2.b-	.	2B-)	.	I6
.	.	.	.	.	.	[4b-	sf	.
=216	=216	=216	=216	=216	=216	=216	=216	=216
2.EE-	sf	2.G	sf	2.b-	sf	4b-]	.	.
.	.	.	.	.	.	(4a-X	.	.
.	.	.	.	.	.	4g	.	.
=217	=217	=217	=217	=217	=217	=217	=217	=217
2.EE-	.	2.A-X	.	2.dd	.	4f')	.	viio64
.	.	.	.	.	.	(4g	.	.
.	.	.	.	.	.	4e	.	.
=218	=218	=218	=218	=218	=218	=218	=218	=218
2.EE-	sf	2.A-	sf	2.dd	sf	4f')	.	.
.	.	.	.	.	.	(4f	.	.
.	.	.	.	.	.	4g	.	.
=219	=219	=219	=219	=219	=219	=219	=219	=219
2.EE-	.	2.G	.	2.ee-X	.	(2e-X)	.	I6
.	.	.	.	.	.	[4gg)	.	.
=220	=220	=220	=220	=220	=220	=220	=220	=220
2.E-	sf	2.G	sf	2.ee-	sf	4gg]	.	I6]
.	.	.	.	.	.	(4ff	.	.
.	.	.	.	.	.	4ee-	.	.
=221	=221	=221	=221	=221	=221	=221	=221	=221
2.C	.	2.g	.	2.ee-	.	4dd')	.	vi
.	.	.	.	.	.	(4ff	.	.
.	.	.	.	.	.	4ee-	.	.
=222	=222	=222	=222	=222	=222	=222	=222	=222
2.C	sf	2.g	sf	2.ee-	sf	4dd')	.	.
.	.	.	.	.	.	(4ee-	.	.
.	.	.	.	.	.	4cc	.	.
=223	=223	=223	=223	=223	=223	=223	=223	=223
2.GG	.	2.B 2.g	.	2.ff	.	4b')	.	i.V7
.	.	.	.	.	.	(4cc	.	.
.	.	.	.	.	.	4a-X	.	.
=224	=224	=224	=224	=224	=224	=224	=224	=224
2.GG	sf	2.B 2.g	sf	2.ff	sf	4g')	.	.
.	.	.	.	.	.	(4a-	.	.
.	.	.	.	.	.	4f	.	.
=225	=225	=225	=225	=225	=225	=225	=225	=225
2.GG	.	2.B 2.g	.	2.ff	.	4e-')	.	.
.	.	.	.	.	.	(4f	.	.
.	.	.	.	.	.	4d	.	.
=226	=226	=226	=226	=226	=226	=226	=226	=226
2.GG	sf	2.B 2.g	sf	2.ff	sf	4c')	.	.
.	.	.	.	.	.	(4d	.	.
.	.	.	.	.	.	4B	.	.
=227	=227	=227	=227	=227	=227	=227	=227	=227
!	!	!	!	!	!LO:DY:a	!	!	!
4C	pp	4c 4g	pp	4g 4ee-	pp pp	4c')	.	i
4c	.	4e-	.	4g	.	(4B	.	.
4c	.	4e-	.	4g	.	4c	.	.
=228	=228	=228	=228	=228	=228	=228	=228	=228
4c	.	4e-	.	4g	.	4e-	.	.
4r	.	4e-	.	4g	.	4g	.	.
4r	.	4e-	.	4g	.	4cc	.	.
=229	=229	=229	=229	=229	=229	=229	=229	=229
4r	.	4e-	.	4g	.	4ee-	.	i6
4C	.	4e-	.	4g	.	4cc	.	i
4C	.	4e-	.	4g	.	4dd	.	.
=230	=230	=230	=230	=230	=230	=230	=230	=230
4C	.	4e-	.	4g	.	4ee-	.	.
4r	.	4e-	.	4g	.	4dd	.	i6
4r	.	4e-	.	4g	.	4cc	.	.
=231	=231	=231	=231	=231	=231	=231	=231	=231
4r	.	4d	.	4f 4g	.	4b	.	V43
4GG	.	4d	.	4f 4g	.	4dd	.	V7
4GG	.	4d	.	4f 4g	.	4ff	.	.
=232	=232	=232	=232	=232	=232	=232	=232	=232
4GG	.	4d	.	4f 4g	.	4aa-	.	V7
4r	.	4d	.	4f 4g	.	4gg	.	V43
4r	.	4d	.	4f 4g	.	4ff	.	.
=233	=233	=233	=233	=233	=233	=233	=233	=233
4r	.	4d	.	4f 4g	.	4ee-	.	.
4G	.	4d	.	4f 4g	.	4ff	.	V7
4G	.	4d	.	4f 4g	.	4dd	.	.
=234	=234	=234	=234	=234	=234	=234	=234	=234
4G	.	4d	.	4f 4g	.	4cc	.	.
4r	.	4d	.	4f 4g	.	4dd	.	V43
4r	.	4d	.	4f 4g	.	4b	.	.
=235	=235	=235	=235	=235	=235	=235	=235	=235
!LO:TX:b:i:t=cresc.	!	!LO:TX:b:i:t=cresc.	!	!LO:TX:b:i:t=cresc.	!	!LO:TX:b:i:t=cresc.	!	!
4r	.	4c	.	4e- 4g	.	4cc	.	i
4c	.	4c	.	4e- 4g	.	4b	.	.
4c	.	4c	.	4e- 4g	.	4cc	.	.
=236	=236	=236	=236	=236	=236	=236	=236	=236
4c	.	4c	.	4e- 4g	.	4ee-	.	.
4r	.	4c	.	4e- 4g	.	4gg	.	.
4r	.	4c	.	4e- 4g	.	4ccc	.	.
=237	=237	=237	=237	=237	=237	=237	=237	=237
4r	.	4c	.	4e- 4g	.	4eee-	.	.
4C	.	4c	.	4e- 4g	.	4ccc	.	.
4C	.	4c	.	4e- 4g	.	4ddd	.	.
=238	=238	=238	=238	=238	=238	=238	=238	=238
4C	.	4c	.	4e- 4g	.	4eee-)	.	.
(4D	.	(4D	.	(4G	.	(4B	.	.
4C	.	4D	.	4A	.	4c	.	.
=239	=239	=239	=239	=239	=239	=239	=239	=239
4BB')	ff	4D)	ff	4B')	ff	4d')	ff	V65
(4BB	.	(4D	.	(4c	.	(4e-	.	.
4AA	.	4C	.	4d	.	4f#	.	V43/V
=240||	=240||	=240||	=240||	=240||	=240||	=240||	=240||	=240||
*k[f#]	*	*k[f#]	*	*k[f#]	*	*k[f#]	*	*
*G:	*	*G:	*	*G:	*	*G:	*	*
4GG)	.	4BB')	.	4d')	.	4g')	.	V\\
4r	.	(4G	.	(4G	.	(4B	.	.
4r	.	4F#	.	4A	.	4c	.	.
=241	=241	=241	=241	=241	=241	=241	=241	=241
2.r	.	4E')	.	4B')	.	4d')	.	@none
.	.	(4D	.	(4c	.	(4e	.	.
.	.	4C	.	4d	.	4f#	.	.
=242	=242	=242	=242	=242	=242	=242	=242	=242
4r	.	4BB')	.	4d')	.	4g')	.	.
(4GG	.	(4BB	.	(4G	.	(4B	.	.
4FF#	.	4C	.	4A	.	4c	.	.
=243	=243	=243	=243	=243	=243	=243	=243	=243
4EE')	.	4D')	.	4B')	.	4d')	.	.
(4DD	.	(4E	.	(4c	.	(4e	.	.
4CC	.	4F#	.	4d	.	4f#	.	.
=244	=244	=244	=244	=244	=244	=244	=244	=244
4BBB')	.	4G')	.	4d')	.	4g')	.	.
(4GG	.	(4G	.	(4g	.	(4B	.	.
4FF#	.	4F#	.	4f#	.	4c	.	.
=245	=245	=245	=245	=245	=245	=245	=245	=245
4EE')	.	4E')	.	4e')	.	4d')	.	.
(4DD	.	(4D	.	(4d	.	(4e	.	.
4CC	.	4C	.	4c	.	4f#	.	.
=246	=246	=246	=246	=246	=246	=246	=246	=246
4BBB')	.	4BB')	.	4B')	.	4g')	.	V.I6
(4BB	.	(4BB	.	(4B	.	(4g	.	.
4AA	.	4AA	.	4A	.	4a	.	V64
=247	=247	=247	=247	=247	=247	=247	=247	=247
2.GG)	f	2.G)	f	2.G)	f	[2.b)	f	I[I
=248	=248	=248	=248	=248	=248	=248	=248	=248
2.GG	sf	2.B	sf	2.dd	sf	4b]	.	I6
.	.	.	.	.	.	(4a	.	.
.	.	.	.	.	.	4g	.	.
=249	=249	=249	=249	=249	=249	=249	=249	=249
2.GG	.	2.A#X 2.c#	.	2.ee	.	4f#')	.	#iio7
.	.	.	.	.	.	(4g	.	.
.	.	.	.	.	.	4e	.	.
=250	=250	=250	=250	=250	=250	=250	=250	=250
2.G	sf	2.A#X 2.c#	sf	2.ee	sf	4d')	.	.
.	.	.	.	.	.	(4e	.	.
.	.	.	.	.	.	4c#	.	.
=251	=251	=251	=251	=251	=251	=251	=251	=251
2.G	.	2.B	.	2.dd	.	(2d)	.	I6
.	.	.	.	.	.	[4dd)	.	.
=252	=252	=252	=252	=252	=252	=252	=252	=252
2.G	sf	2.B	sf	2.dd	sf	4dd]	.	.
.	.	.	.	.	.	(4ccX	.	.
.	.	.	.	.	.	4b	.	.
=253	=253	=253	=253	=253	=253	=253	=253	=253
2.G	.	2.cX	.	2.ff#	.	4a')	.	viio64
.	.	.	.	.	.	(4b	.	.
.	.	.	.	.	.	4g#	.	.
=254	=254	=254	=254	=254	=254	=254	=254	=254
2.G	sf	2.c	sf	2.ff#	sf	4a')	.	.
.	.	.	.	.	.	(4a	.	.
.	.	.	.	.	.	4b	.	.
=255	=255	=255	=255	=255	=255	=255	=255	=255
2.G	.	2.B	.	2.gg	.	(2gX)	.	I6
.	.	.	.	.	.	[4bb)	.	.
=256	=256	=256	=256	=256	=256	=256	=256	=256
2.G	sf	2.B	sf	2.dd	sf	4bb]	.	.
.	.	.	.	.	.	(4aa	.	.
.	.	.	.	.	.	4gg	.	.
=257	=257	=257	=257	=257	=257	=257	=257	=257
2.G	.	2.A#X 2.c#	.	2.cc# 2.ee	.	4ff#')	.	#iio7
.	.	.	.	.	.	(4gg	.	.
.	.	.	.	.	.	4ee	.	.
=258	=258	=258	=258	=258	=258	=258	=258	=258
2.G	sf	2.A#X 2.c#	sf	2.cc# 2.ee	sf	4dd')	.	.
.	.	.	.	.	.	(4ee	.	.
.	.	.	.	.	.	4cc#	.	.
=259	=259	=259	=259	=259	=259	=259	=259	=259
2.G	.	2.B	.	2.dd	.	(2dd)	.	I6
.	.	.	.	.	.	[4ddd)	.	.
=260	=260	=260	=260	=260	=260	=260	=260	=260
2.G	sf	2.B	sf	2.dd	sf	4ddd]	.	.
.	.	.	.	.	.	(4cccX	.	.
.	.	.	.	.	.	4bb	.	.
=261	=261	=261	=261	=261	=261	=261	=261	=261
2.G	.	2.cX	.	2.a 2.ff#	.	4aa')	.	viio64
.	.	.	.	.	.	(4bb	.	.
.	.	.	.	.	.	4gg#	.	.
=262	=262	=262	=262	=262	=262	=262	=262	=262
2.G	sf	2.c	sf	2.a 2.ff#	sf	4aa')	.	V2
.	.	.	.	.	.	(4aa	.	.
.	.	.	.	.	.	4bb	.	.
=263	=263	=263	=263	=263	=263	=263	=263	=263
2.G	.	2.B	.	2.dd	.	4ggX')	.	I6
.	.	.	.	.	.	(4aa	.	.
.	.	.	.	.	.	4ff#	.	.
=264	=264	=264	=264	=264	=264	=264	=264	=264
2.G	sf	2.B	sf	2.dd	sf	4gg')	.	.
.	.	.	.	.	.	(4aa	.	.
.	.	.	.	.	.	4bb	.	.
=265	=265	=265	=265	=265	=265	=265	=265	=265
2.G	.	2.c	.	2.a 2.ff#	.	4aa')	.	V2
.	.	.	.	.	.	(4bb	.	.
.	.	.	.	.	.	4gg#	.	.
=266	=266	=266	=266	=266	=266	=266	=266	=266
2.G	sf	2.c	sf	2.a 2.ff#	sf	4aa')	.	.
.	.	.	.	.	.	(4aa	.	.
.	.	.	.	.	.	4bb	.	.
=267	=267	=267	=267	=267	=267	=267	=267	=267
!LO:TX:b:i:t=dim.	!	!LO:TX:a:i:t=dim.	!	!LO:TX:a:i:t=dim.	!	!	!	!
2.G	.	2.B	.	2.dd	.	4ggX')	.	I6
!	!	!	!	!	!	!LO:TX:a:i:t=dim.	!	!
.	.	.	.	.	.	(4aa	.	.
.	.	.	.	.	.	4ff#	.	.
=268	=268	=268	=268	=268	=268	=268	=268	=268
2.G	.	2.B	.	2.dd	.	4gg')	.	.
.	.	.	.	.	.	(4aa	.	.
.	.	.	.	.	.	4bb	.	.
=269	=269	=269	=269	=269	=269	=269	=269	=269
!LO:TX:b:i:t=dim.	!	!LO:TX:b:i:t=dim.	!	!LO:TX:b:i:t=dim.	!	!	!	!
2.G	p	2.c	p	2.a 2.ff#	p	4aa')	p	.
!	!	!	!	!	!	!LO:TX:b:i:t=dim.	!	!
.	.	.	.	.	.	(4bb	.	.
.	.	.	.	.	.	4gg#	.	.
=270	=270	=270	=270	=270	=270	=270	=270	=270
2.G	.	2.A 2.c	.	2.a 2.ff#	.	4aa')	.	viio6
.	.	.	.	.	.	(4aa	.	.
.	.	.	.	.	.	4bb	.	.
=271	=271	=271	=271	=271	=271	=271	=271	=271
2.G	.	2.A 2.c	.	2.a 2.ff#	.	4aa')	.	viio6]
.	.	.	.	.	.	(4bb	.	.
.	.	.	.	.	.	4ccc;)	.	.
=272||	=272||	=272||	=272||	=272||	=272||	=272||	=272||	=272||
*k[]	*	*k[]	*	*k[]	*	*k[]	*	*
*C:	*	*C:	*	*C:	*	*C:	*	*
*M3/4	*	*M3/4	*	*M3/4	*	*M3/4	*	*
!	!	!	!	!	!	!LO:TX:a:B:t=Tempo I	!	!
2.r	.	2.r	.	2.r	.	4r	.	.
.	.	.	.	.	.	8.r	.	.
.	.	.	.	.	.	16ddd'KL	pp	.
.	.	.	.	.	.	8ccc'	.	.
.	.	.	.	.	.	16r	.	.
.	.	.	.	.	.	16aa'Jk	.	.
=273	=273	=273	=273	=273	=273	=273	=273	=273
2.r	.	[2.g	pp	[2.b [2.dd	pp	4bb	.	I.V
.	.	.	.	.	.	8.r	.	.
.	.	.	.	.	.	16bb'KL	.	.
.	.	.	.	.	.	8aa'	.	.
.	.	.	.	.	.	16r	.	.
.	.	.	.	.	.	16ff#'Jk	.	.
=274	=274	=274	=274	=274	=274	=274	=274	=274
2.r	.	2.g_	.	2.b] 2.dd]	.	4gg	.	.
.	.	.	.	.	.	8.r	.	.
.	.	.	.	.	.	16gg'KL	.	.
.	.	.	.	.	.	8ffX'	.	.
.	.	.	.	.	.	16r	.	.
.	.	.	.	.	.	16dd'Jk	.	.
=275	=275	=275	=275	=275	=275	=275	=275	=275
2.r	.	(4g]	.	(2dd	.	(2ff	.	V7
.	.	2f#)	.	.	.	.	.	.
.	.	.	.	4ccT)	.	4eet)	.	#vii%7/V
=276	=276	=276	=276	=276	=276	=276	=276	=276
!	!	!	!	!LO:TX:a:i:t=sempre pp	!	!LO:TX:a:i:t=sempre pp	!	!
4r	.	8g	.	[2.b	.	[2.dd	.	V
!	!	!LO:TX:a:i:t=sempre pp	!	!	!	!	!	!
.	.	16r	.	.	.	.	.	.
.	.	16G	.	.	.	.	.	.
8.r	.	[2g	.	.	.	.	.	.
!LO:TX:a:i:t=sempre pp	!	!	!	!	!	!	!	!
16GG'KL	.	.	.	.	.	.	.	.
8AA'	.	.	.	.	.	.	.	.
16r	.	.	.	.	.	.	.	.
16C'Jk	.	.	.	.	.	.	.	.
=277	=277	=277	=277	=277	=277	=277	=277	=277
4BB	.	2.g_	.	2.b_	.	2.dd_	.	V6
8.r	.	.	.	.	.	.	.	.
16BB'KL	.	.	.	.	.	.	.	.
8C'	.	.	.	.	.	.	.	.
16r	.	.	.	.	.	.	.	.
16E'Jk	.	.	.	.	.	.	.	.
=278	=278	=278	=278	=278	=278	=278	=278	=278
4D	.	2.g]	.	2.b]	.	2.dd_	.	V64
8.r	.	.	.	.	.	.	.	.
16D'KL	.	.	.	.	.	.	.	.
8E'	.	.	.	.	.	.	.	.
16r	.	.	.	.	.	.	.	.
16G'Jk	.	.	.	.	.	.	.	.
=279	=279	=279	=279	=279	=279	=279	=279	=279
(2F#	.	(2a	.	[2.cc	.	2.dd_	.	V
4G)	.	4gT	.	.	.	.	.	.
=280	=280	=280	=280	=280	=280	=280	=280	=280
4A'	.	4f#)	.	(4cc]	.	4dd]	.	V43/V
(4BB	.	8.r	.	4fX)	.	4G 4d	.	V65
.	.	16a'KL	.	.	.	.	.	.
4C#t)	.	8g'	.	(4G	.	4et	.	#viio/ii
.	.	16r	.	.	.	.	.	.
.	.	16e'Jk	.	.	.	.	.	.
=281	=281	=281	=281	=281	=281	=281	=281	=281
(2D	.	4fX	.	(2F)	.	4f	.	ii
.	.	8.r	.	.	.	4r	.	.
.	.	16f'KL	.	.	.	.	.	.
4Et)	.	8e'	.	4GT)	.	4r	.	#viio6/ii
.	.	16r	.	.	.	.	.	.
.	.	16c#'Jk	.	.	.	.	.	.
=282	=282	=282	=282	=282	=282	=282	=282	=282
(2F	.	4d	.	(2A	.	2.r	.	#viio/V
.	.	8.r	.	.	.	.	.	.
.	.	16d'KL	.	.	.	.	.	.
4F#t)	.	8cX'	.	4aT)	.	.	.	.
.	.	16r	.	.	.	.	.	.
.	.	16A'Jk	.	.	.	.	.	.
.	.	.	.	32qqg#/LLL	.	.	.	.
.	.	.	.	32qqa/JJJ	.	.	.	.
=283	=283	=283	=283	=283	=283	=283	=283	=283
(2G	.	(2B	.	4d	.	2.r	.	@none
.	.	.	.	4r	.	.	.	.
4c)	.	4AT)	.	4r	.	.	.	.
=284	=284	=284	=284	=284	=284	=284	=284	=284
*M3/4	*	*M3/4	*	*M3/4	*	*M3/4	*	*
!	!	!	!	!	!	!LO:TX:a:B:t=Tempo I	!	!
2.r	.	2.r	.	2.r	.	2.r	.	.
=285	=285	=285	=285	=285	=285	=285	=285	=285
4r	.	4r	.	4r	.	4r	.	.
8.r	.	8.r	.	8.r	.	8.r	.	.
16cKL	pp	16cKL	.	16eKL	pp	16gKL	pp	I
8B	.	8d	pp	8d	.	8g	.	V65
16r	.	16r	.	16r	.	16r	.	.
16GJk	.	16dJk	.	16fJk	.	16gJk	.	V7
=286	=286	=286	=286	=286	=286	=286	=286	=286
4c	.	4c	.	4e	.	4g	.	I
4c	.	4c	.	4e	.	4g	.	.
4r	.	4r	.	4r	.	4r	.	.
=287	=287	=287	=287	=287	=287	=287	=287	=287
4r	.	4r	.	4r	.	2.r	.	V7
8.r	.	8.r	.	8.r	.	.	.	.
!LO:TX:b:i:t=sempre pp	!	!LO:TX:b:i:t=sempre pp	!	!LO:TX:b:i:t=sempre pp	!	!	!	!
16cKL	.	16eKL	.	16gKL	.	.	.	.
8B	.	8d	.	8g	.	.	.	.
16r	.	16r	.	16r	.	.	.	.
16GJk	.	16dJk	.	16fJk 16g	.	.	.	.
=288	=288	=288	=288	=288	=288	=288	=288	=288
4c	.	4e	.	4e 4g	.	8.r	.	I
.	.	.	.	.	.	16ggKL	.	.
4c	.	4e	.	4g	.	8ff	.	.
.	.	.	.	.	.	16r	.	.
.	.	.	.	.	.	16ddJk	.	.
4r	.	4r	.	4r	.	4ee	.	.
=289	=289	=289	=289	=289	=289	=289	=289	=289
4r	.	4r	.	4r	.	8.r	.	.
.	.	.	.	.	.	16eeKL	.	.
4c	.	4e	.	4g	.	8dd	.	.
.	.	.	.	.	.	16r	.	.
.	.	.	.	.	.	16bJk	.	.
4r	.	4r	.	4r	.	4cc	.	.
=290	=290	=290	=290	=290	=290	=290	=290	=290
4r	.	4r	.	4r	.	8.r	.	.
.	.	.	.	.	.	16ggKL	.	.
4c	.	4e	.	4g	.	8ff	.	.
.	.	.	.	.	.	16r	.	.
.	.	.	.	.	.	16ddJk	.	.
!LO:TX:b:i:t=cresc.	!	!LO:TX:b:i:t=cresc.	!	!LO:TX:b:i:t=cresc.	!	!LO:TX:b:i:t=cresc.	!	!
8cL	.	8eL	.	8gL	.	8eeL	.	.
16r	.	16r	.	16r	.	16r	.	.
16CJk	.	16eJk	.	16gJk	.	16eeJk	.	.
=291	=291	=291	=291	=291	=291	=291	=291	=291
8CL	.	8cL	.	8gL	.	8eeL	.	.
16r	.	16r	.	16r	.	16r	.	.
16CJk	.	16cJk	.	16gJk	.	16eeJk	.	.
8FFL	.	8AL	.	8aL	.	8ddL	.	ii6
16r	.	16r	.	16r	.	16r	.	.
16GGJk	.	16fJk	.	16fJk	.	16bJk	.	V7
8CL	.	8e	.	8c	.	8cc	.	I
16r	.	16r	.	16r	.	16r	.	.
!	!	!	!LO:DY:a	!	!	!	!	!
16CJk	ff	16C 16E	ff ff	16e 16cc	.	16cc 16ccc	ff	.
=292	=292	=292	=292	=292	=292	=292	=292	=292
4CC	.	4C 4E	.	4e 4cc	.	4cc 4ccc	.	I\\
8CC	.	8C 8E	.	8c	.	8c	.	.
8r	.	8r	.	8r	.	8r	.	.
4r	.	4r	.	4r	.	4r	.	.
==	==	==	==	==	==	==	==	==
*-	*-	*-	*-	*-	*-	*-	*-	*-
!!!system-decoration: [(s1,s2,s3,s4)]
